; generated by PrusaSlicer 2.2.0+win64 on 2020-07-07 at 15:07:34 UTC

; 

; external perimeters extrusion width = 0.45mm
; perimeters extrusion width = 0.45mm
; infill extrusion width = 0.45mm
; solid infill extrusion width = 0.45mm
; top infill extrusion width = 0.40mm
; first layer extrusion width = 0.42mm

M73 P0 R193
M73 Q0 S194
M201 X1000 Y1000 Z1000 E5000 ; sets maximum accelerations, mm/sec^2
M203 X200 Y200 Z12 E120 ; sets maximum feedrates, mm/sec
M204 P1250 R1250 T1250 ; sets acceleration (P, T) and retract acceleration (R), mm/sec^2
M205 X8.00 Y8.00 Z0.40 E4.50 ; sets the jerk limits, mm/sec
M205 S0 T0 ; sets the minimum extruding and travel feed rate, mm/sec
M107
M862.3 P "MK3S" ; printer model check
M862.1 P0.4 ; nozzle diameter check
M115 U3.8.1 ; tell printer latest fw version
G90 ; use absolute coordinates
M83 ; extruder relative mode
M104 S215 ; set extruder temp
M140 S60 ; set bed temp
M190 S60 ; wait for bed temp
M109 S215 ; wait for extruder temp
G28 W ; home all without mesh bed level
G80 ; mesh bed leveling
G1 Y-3.0 F1000.0 ; go outside print area
G92 E0.0
G1 X60.0 E9.0 F1000.0 ; intro line
M73 Q0 S194
M73 P0 R193
G1 X100.0 E12.5 F1000.0 ; intro line
G92 E0.0
M221 S95
G21 ; set units to millimeters
G90 ; use absolute coordinates
M83 ; use relative distances for extrusion
M900 K30 ; Filament gcode
;BEFORE_LAYER_CHANGE
G92 E0.0
;0.2


G1 E-0.80000 F2100.00000
G1 Z0.600 F10800.000
;AFTER_LAYER_CHANGE
;0.2
G1 X123.717 Y77.019
G1 Z0.200
G1 E0.80000 F2100.00000
M204 S1000
G1 F1200.000
G1 X124.630 Y76.837 E0.02919
G1 X125.515 Y77.008 E0.02825
G1 X126.272 Y77.497 E0.02825
G1 X140.256 Y91.787 E0.62691
G1 X148.279 Y101.152 E0.38663
G1 X149.036 Y102.386 E0.04539
G1 X149.415 Y103.492 E0.03667
G1 X149.563 Y104.471 E0.03105
G1 X149.577 Y107.269 E0.08773
G1 X149.498 Y108.239 E0.03051
G1 X149.278 Y109.135 E0.02891
G1 X148.900 Y110.030 E0.03049
G1 X148.550 Y110.618 E0.02144
G1 X140.305 Y120.276 E0.39816
G1 X126.227 Y133.883 E0.61389
G1 X125.486 Y134.341 E0.02731
G1 X124.630 Y134.502 E0.02731
G1 X123.745 Y134.332 E0.02825
G1 X122.990 Y133.847 E0.02813
G1 X109.746 Y120.353 E0.59284
G1 X101.718 Y110.984 E0.38683
G1 X100.964 Y109.753 E0.04527
G1 X100.585 Y108.647 E0.03667
G1 X100.437 Y107.667 E0.03105
G1 X100.423 Y104.869 E0.08773
G1 X100.502 Y103.900 E0.03051
G1 X100.722 Y103.004 E0.02891
G1 X101.100 Y102.108 E0.03049
G1 X101.448 Y101.524 E0.02132
G1 X109.648 Y91.867 E0.39722
G1 X122.944 Y77.537 E0.61293
G1 X123.667 Y77.052 E0.02731
G1 F8640.000
G1 X124.630 Y76.837 E-0.22782
G1 X125.515 Y77.008 E-0.20806
G1 X126.272 Y77.497 E-0.20806
G1 X126.624 Y77.856 E-0.11607
G1 E-0.04000 F2100.00000
G1 Z0.800 F10800.000
G1 X106.835 Y94.889
G1 Z0.200
G1 E0.80000 F2100.00000
G1 F1200.000
G1 X106.845 Y93.072 E0.05696
G1 X107.155 Y91.812 E0.04070
G1 X107.813 Y90.647 E0.04197
G1 X121.543 Y75.842 E0.63307
G1 X122.631 Y75.135 E0.04069
G1 X123.538 Y74.811 E0.03021
G1 X125.619 Y74.783 E0.06527
G1 X126.535 Y75.084 E0.03022
G1 X127.644 Y75.763 E0.04077
G1 X142.221 Y90.702 E0.65446
G1 X142.832 Y91.795 E0.03924
G1 X143.159 Y93.051 E0.04070
G1 X143.167 Y94.895 E0.05782
G1 X143.170 Y95.478 F10800.000
G1 F1200.000
G1 X143.175 Y96.551 E0.03364
G1 X144.115 Y96.581 E0.02949
G1 X144.653 Y96.630 F10800.000
G1 F1200.000
G1 X144.978 Y96.671 E0.01027
G1 X145.672 Y96.818 E0.02224
G1 X146.334 Y97.019 E0.02168
G1 X146.954 Y97.262 E0.02087
G1 X147.575 Y97.568 E0.02172
G1 X148.120 Y97.892 E0.01988
G1 X148.640 Y98.258 E0.01994
G1 X149.252 Y98.773 E0.02507
G1 X149.691 Y99.211 E0.01944
G1 X150.097 Y99.683 E0.01953
G1 X150.556 Y100.317 E0.02452
G1 X150.940 Y100.965 E0.02363
G1 X151.207 Y101.516 E0.01919
G1 X151.429 Y102.072 E0.01877
G1 X151.652 Y102.801 E0.02392
G1 X151.799 Y103.495 E0.02223
G1 X151.884 Y104.175 E0.02150
G1 X151.913 Y104.784 E0.01910
G1 X151.913 Y107.334 E0.07996
G1 X151.886 Y107.948 E0.01928
G1 X151.813 Y108.560 E0.01933
G1 X151.659 Y109.310 E0.02398
G1 X151.461 Y109.973 E0.02172
G1 X151.209 Y110.618 E0.02169
G1 X150.916 Y111.217 E0.02091
G1 X150.589 Y111.772 E0.02020
G1 X150.226 Y112.290 E0.01983
G1 X149.756 Y112.856 E0.02308
G1 X149.229 Y113.387 E0.02347
G1 X148.705 Y113.831 E0.02151
G1 X148.146 Y114.230 E0.02155
G1 X147.494 Y114.615 E0.02373
G1 X146.945 Y114.880 E0.01914
G1 X146.390 Y115.101 E0.01873
G1 X145.684 Y115.317 E0.02315
G1 X144.973 Y115.469 E0.02280
G1 X144.618 Y115.513 E0.01119
G1 X144.082 Y115.560 F10800.000
G1 F1200.000
G1 X143.175 Y115.588 E0.02846
G1 X143.170 Y116.629 E0.03264
G1 X143.167 Y117.213 F10800.000
G1 F1200.000
G1 X143.157 Y119.101 E0.05919
G1 X142.807 Y120.400 E0.04217
G1 X142.153 Y121.519 E0.04064
G1 X127.553 Y135.670 E0.63752
G1 X126.275 Y136.387 E0.04595
G1 X125.163 Y136.636 E0.03574
G1 X124.184 Y136.638 E0.03068
G1 X123.266 Y136.476 E0.02925
G1 X121.656 Y135.619 E0.05719
G1 X107.866 Y121.550 E0.61767
G1 X107.182 Y120.390 E0.04223
G1 X106.845 Y119.070 E0.04271
G1 X106.835 Y117.245 E0.05721
G1 X106.832 Y116.662 F10800.000
G1 F1200.000
G1 X106.826 Y115.588 E0.03368
G1 X105.887 Y115.560 E0.02944
G1 X105.348 Y115.510 F10800.000
G1 F1200.000
G1 X105.084 Y115.478 E0.00833
G1 X104.422 Y115.344 E0.02118
G1 X103.778 Y115.158 E0.02104
G1 X103.097 Y114.898 E0.02284
G1 X102.432 Y114.575 E0.02319
G1 X101.859 Y114.233 E0.02093
G1 X101.311 Y113.843 E0.02110
G1 X100.739 Y113.358 E0.02351
G1 X100.254 Y112.868 E0.02160
G1 X99.810 Y112.338 E0.02169
G1 X99.437 Y111.811 E0.02024
G1 X99.106 Y111.258 E0.02021
G1 X98.775 Y110.583 E0.02357
G1 X98.537 Y109.969 E0.02066
G1 X98.345 Y109.327 E0.02099
G1 X98.201 Y108.641 E0.02198
G1 X98.114 Y107.949 E0.02188
G1 X98.087 Y107.329 E0.01945
G1 X98.100 Y104.412 E0.09148
G1 X98.201 Y103.497 E0.02886
G1 X98.367 Y102.730 E0.02458
G1 X98.559 Y102.106 E0.02047
G1 X98.807 Y101.485 E0.02095
G1 X99.130 Y100.838 E0.02270
G1 X99.497 Y100.237 E0.02206
G1 X99.907 Y99.678 E0.02176
G1 X100.321 Y99.198 E0.01987
G1 X100.772 Y98.751 E0.01992
G1 X101.303 Y98.302 E0.02179
G1 X101.817 Y97.933 E0.01985
G1 X102.370 Y97.598 E0.02027
G1 X102.994 Y97.286 E0.02187
G1 X103.647 Y97.025 E0.02205
G1 X104.344 Y96.814 E0.02283
G1 X105.075 Y96.662 E0.02341
G1 X105.356 Y96.631 E0.00886
G1 X105.898 Y96.575 F10800.000
G1 F1200.000
G1 X106.826 Y96.570 E0.02909
G1 X106.832 Y95.475 E0.03433
G1 X107.209 Y95.031 F10800.000
G1 F1200.000
G1 X107.202 Y96.945 E0.06002
G1 X105.858 Y96.952 E0.04212
G1 X105.547 Y96.988 E0.00982
G1 X104.987 Y97.065 F10800.000
G1 F1200.000
G1 X104.430 Y97.182 E0.01785
G1 X103.779 Y97.378 E0.02131
G1 X103.155 Y97.627 E0.02106
G1 X102.559 Y97.925 E0.02090
G1 X102.031 Y98.244 E0.01934
G1 X101.529 Y98.604 E0.01938
G1 X101.032 Y99.024 E0.02039
G1 X100.602 Y99.451 E0.01900
G1 X100.197 Y99.919 E0.01939
G1 X99.806 Y100.454 E0.02079
G1 X99.456 Y101.027 E0.02106
G1 X99.148 Y101.646 E0.02169
G1 X98.917 Y102.225 E0.01953
G1 X98.733 Y102.818 E0.01948
G1 X98.575 Y103.548 E0.02341
G1 X98.477 Y104.423 E0.02761
G1 X98.464 Y107.326 E0.09101
G1 X98.491 Y107.924 E0.01878
G1 X98.571 Y108.571 E0.02044
G1 X98.713 Y109.242 E0.02149
G1 X98.891 Y109.839 E0.01956
G1 X99.118 Y110.425 E0.01968
G1 X99.434 Y111.072 E0.02257
G1 X99.749 Y111.599 E0.01927
G1 X100.104 Y112.102 E0.01930
G1 X100.528 Y112.608 E0.02071
G1 X101.001 Y113.086 E0.02109
G1 X101.548 Y113.550 E0.02248
G1 X102.071 Y113.921 E0.02010
G1 X102.618 Y114.247 E0.01996
G1 X103.254 Y114.556 E0.02218
G1 X103.890 Y114.798 E0.02132
G1 X104.519 Y114.980 E0.02054
G1 X104.972 Y115.071 E0.01447
G1 X105.539 Y115.154 F10800.000
G1 F1200.000
G1 X106.330 Y115.205 E0.02484
G1 X107.202 Y115.206 E0.02733
G1 X107.209 Y117.102 E0.05947
G1 X107.211 Y117.684 F10800.000
G1 F1200.000
G1 X107.216 Y119.001 E0.04129
G1 X107.522 Y120.224 E0.03951
G1 X108.152 Y121.303 E0.03919
G1 X121.904 Y135.333 E0.61599
G1 X123.414 Y136.128 E0.05348
G1 X124.201 Y136.261 E0.02503
G1 X125.101 Y136.263 E0.02824
G1 X126.166 Y136.025 E0.03420
G1 X127.308 Y135.383 E0.04109
G1 X141.872 Y121.267 E0.63592
G1 X142.468 Y120.234 E0.03739
G1 X142.787 Y119.029 E0.03909
G1 X142.791 Y117.654 E0.04311
G1 X142.793 Y117.071 F10800.000
G1 F1200.000
G1 X142.799 Y115.206 E0.05848
G1 X143.663 Y115.205 E0.02709
G1 X144.426 Y115.158 E0.02398
G1 X144.988 Y115.081 F10800.000
G1 F1200.000
G1 X145.582 Y114.954 E0.01904
G1 X146.258 Y114.748 E0.02217
G1 X146.799 Y114.532 E0.01827
G1 X147.323 Y114.279 E0.01824
G1 X147.947 Y113.909 E0.02274
G1 X148.480 Y113.528 E0.02054
G1 X148.967 Y113.116 E0.02002
G1 X149.483 Y112.597 E0.02295
G1 X149.922 Y112.067 E0.02156
G1 X150.276 Y111.562 E0.01936
G1 X150.588 Y111.032 E0.01927
G1 X150.867 Y110.459 E0.01997
G1 X151.107 Y109.844 E0.02073
G1 X151.291 Y109.226 E0.02022
G1 X151.439 Y108.508 E0.02298
G1 X151.510 Y107.911 E0.01885
G1 X151.536 Y107.322 E0.01849
G1 X151.536 Y104.788 E0.07943
G1 X151.508 Y104.200 E0.01845
G1 X151.426 Y103.550 E0.02055
G1 X151.285 Y102.888 E0.02123
G1 X151.076 Y102.204 E0.02242
G1 X150.859 Y101.662 E0.01831
G1 X150.604 Y101.137 E0.01830
G1 X150.245 Y100.530 E0.02211
G1 X149.806 Y99.923 E0.02349
G1 X149.419 Y99.473 E0.01861
G1 X148.991 Y99.045 E0.01896
G1 X148.416 Y98.562 E0.02356
G1 X147.921 Y98.213 E0.01900
G1 X147.389 Y97.896 E0.01941
G1 X146.795 Y97.604 E0.02076
G1 X146.204 Y97.372 E0.01990
G1 X145.571 Y97.182 E0.02071
G1 X145.028 Y97.067 E0.01741
G1 X144.461 Y96.985 F10800.000
G1 F1200.000
G1 X143.689 Y96.934 E0.02426
G1 X142.799 Y96.934 E0.02791
G1 X142.793 Y95.038 E0.05943
G1 X142.791 Y94.456 F10800.000
G1 F1200.000
G1 X142.788 Y93.121 E0.04187
G1 X142.490 Y91.955 E0.03773
G1 X141.933 Y90.947 E0.03610
G1 X127.391 Y76.044 E0.65289
G1 X126.359 Y75.418 E0.03783
G1 X125.533 Y75.152 E0.02721
G1 X123.634 Y75.177 E0.05957
G1 X122.816 Y75.465 E0.02719
G1 X121.803 Y76.116 E0.03777
G1 X108.130 Y90.853 E0.63030
G1 X107.515 Y91.929 E0.03884
G1 X107.216 Y93.141 E0.03915
G1 X107.211 Y94.446 E0.04092
G1 X107.585 Y94.589 F10800.000
G1 F1200.000
G1 X107.578 Y97.320 E0.08565
G1 X105.871 Y97.329 E0.05353
G1 X105.190 Y97.408 E0.02148
G1 X104.589 Y97.533 F10800.000
G1 F1200.000
G1 X103.897 Y97.737 E0.02264
G1 X103.302 Y97.974 E0.02006
G1 X102.747 Y98.251 E0.01946
G1 X102.245 Y98.555 E0.01841
G1 X101.755 Y98.906 E0.01890
G1 X101.282 Y99.307 E0.01943
G1 X100.873 Y99.713 E0.01807
G1 X100.488 Y100.159 E0.01847
G1 X100.115 Y100.669 E0.01983
G1 X99.782 Y101.216 E0.02005
G1 X99.489 Y101.807 E0.02069
G1 X99.275 Y102.344 E0.01813
G1 X99.100 Y102.907 E0.01849
G1 X98.948 Y103.600 E0.02225
G1 X98.854 Y104.435 E0.02635
G1 X98.841 Y107.323 E0.09055
G1 X98.867 Y107.900 E0.01811
G1 X98.942 Y108.501 E0.01900
G1 X99.080 Y109.156 E0.02099
G1 X99.250 Y109.724 E0.01859
G1 X99.460 Y110.267 E0.01825
G1 X99.762 Y110.885 E0.02158
G1 X100.061 Y111.388 E0.01834
G1 X100.399 Y111.866 E0.01835
G1 X100.812 Y112.360 E0.02021
G1 X101.263 Y112.815 E0.02007
G1 X101.785 Y113.257 E0.02145
G1 X102.283 Y113.609 E0.01911
G1 X102.804 Y113.918 E0.01900
G1 X103.411 Y114.213 E0.02118
G1 X104.002 Y114.438 E0.01981
G1 X104.570 Y114.602 E0.01854
G1 X105.173 Y114.727 F10800.000
G1 F1200.000
G1 X105.767 Y114.802 E0.01876
G1 X106.335 Y114.828 E0.01781
G1 X107.578 Y114.829 E0.03899
G1 X107.585 Y117.541 E0.08504
G1 X107.586 Y118.122 F10800.000
G1 F1200.000
G1 X107.588 Y118.935 E0.02548
G1 X107.862 Y120.060 E0.03630
G1 X108.438 Y121.057 E0.03610
G1 X122.152 Y135.048 E0.61428
G1 X123.559 Y135.778 E0.04972
G1 X124.217 Y135.884 E0.02089
G1 X125.040 Y135.890 E0.02581
G1 X126.056 Y135.663 E0.03264
G1 X127.063 Y135.095 E0.03624
G1 X141.590 Y121.015 E0.63430
G1 X142.127 Y120.070 E0.03409
G1 X142.416 Y118.958 E0.03604
G1 X142.417 Y118.092 E0.02715
G1 X142.418 Y117.510 F10800.000
G1 F1200.000
G1 X142.422 Y114.829 E0.08408
G1 X143.658 Y114.828 E0.03876
G1 X144.242 Y114.801 E0.01833
G1 X144.790 Y114.732 E0.01730
G1 X145.389 Y114.611 F10800.000
G1 F1200.000
G1 X146.140 Y114.389 E0.02454
G1 X146.653 Y114.185 E0.01732
G1 X147.151 Y113.943 E0.01735
G1 X147.747 Y113.589 E0.02174
G1 X148.253 Y113.226 E0.01953
G1 X148.717 Y112.834 E0.01905
G1 X149.209 Y112.337 E0.02192
G1 X149.617 Y111.845 E0.02006
G1 X149.954 Y111.364 E0.01842
G1 X150.259 Y110.847 E0.01880
G1 X150.524 Y110.301 E0.01903
G1 X150.748 Y109.728 E0.01930
G1 X150.924 Y109.141 E0.01921
G1 X151.066 Y108.455 E0.02197
G1 X151.134 Y107.887 E0.01793
G1 X151.159 Y107.309 E0.01813
G1 X151.159 Y104.793 E0.07890
G1 X151.132 Y104.226 E0.01780
G1 X151.053 Y103.606 E0.01960
G1 X150.918 Y102.975 E0.02023
G1 X150.722 Y102.337 E0.02092
G1 X150.512 Y101.808 E0.01784
G1 X150.268 Y101.309 E0.01740
G1 X149.934 Y100.744 E0.02060
G1 X149.515 Y100.162 E0.02246
G1 X149.138 Y99.724 E0.01812
G1 X148.731 Y99.318 E0.01804
G1 X148.193 Y98.865 E0.02205
G1 X147.710 Y98.525 E0.01852
G1 X147.203 Y98.224 E0.01848
G1 X146.649 Y97.952 E0.01935
G1 X146.087 Y97.731 E0.01893
G1 X145.431 Y97.537 E0.02147
G1 X144.826 Y97.411 F10800.000
G1 F1200.000
G1 X144.268 Y97.340 E0.01765
G1 X143.684 Y97.311 E0.01832
G1 X142.422 Y97.311 E0.03958
G1 X142.418 Y94.600 E0.08498
G1 X142.417 Y94.020 F10800.000
G1 F1200.000
G1 X142.416 Y93.190 E0.02603
G1 X142.147 Y92.114 E0.03478
G1 X141.645 Y91.192 E0.03292
G1 X127.138 Y76.325 E0.65128
G1 X126.185 Y75.753 E0.03485
G1 X125.449 Y75.520 E0.02420
G1 X123.728 Y75.543 E0.05397
G1 X122.999 Y75.795 E0.02419
G1 X122.062 Y76.391 E0.03480
G1 X108.421 Y91.093 E0.62883
G1 X107.857 Y92.091 E0.03594
G1 X107.588 Y93.207 E0.03600
G1 X107.586 Y94.004 E0.02500
G1 X107.959 Y94.148 F10800.000
G1 F1200.000
G1 X107.955 Y97.696 E0.11125
G1 X105.904 Y97.705 E0.06433
G1 X105.248 Y97.780 E0.02070
G1 X104.794 Y97.875 E0.01454
G1 X104.147 Y98.054 F10800.000
G1 F1200.000
G1 X103.463 Y98.315 E0.02295
G1 X102.935 Y98.578 E0.01851
G1 X102.458 Y98.866 E0.01747
G1 X101.992 Y99.199 E0.01795
G1 X101.542 Y99.580 E0.01848
G1 X101.144 Y99.975 E0.01760
G1 X100.779 Y100.399 E0.01754
G1 X100.424 Y100.885 E0.01887
G1 X100.116 Y101.391 E0.01857
G1 X99.836 Y101.954 E0.01971
G1 X99.628 Y102.477 E0.01765
G1 X99.462 Y103.011 E0.01755
G1 X99.322 Y103.653 E0.02059
G1 X99.231 Y104.448 E0.02508
G1 X99.218 Y107.311 E0.08979
G1 X99.242 Y107.861 E0.01727
G1 X99.313 Y108.432 E0.01802
G1 X99.444 Y109.056 E0.01999
G1 X99.605 Y109.595 E0.01764
G1 X99.809 Y110.123 E0.01777
G1 X100.090 Y110.700 E0.02010
G1 X100.374 Y111.177 E0.01741
G1 X100.693 Y111.630 E0.01740
G1 X101.086 Y112.101 E0.01920
G1 X101.525 Y112.543 E0.01955
G1 X102.022 Y112.963 E0.02041
G1 X102.494 Y113.296 E0.01811
G1 X102.989 Y113.590 E0.01804
G1 X103.554 Y113.864 E0.01968
G1 X104.123 Y114.081 E0.01911
G1 X104.776 Y114.263 F10800.000
G1 F1200.000
G1 X105.271 Y114.362 E0.01584
G1 X105.805 Y114.427 E0.01687
G1 X106.347 Y114.451 E0.01701
G1 X107.955 Y114.452 E0.05042
G1 X107.959 Y117.978 E0.11056
G1 X107.960 Y118.558 F10800.000
G1 F1200.000
G1 X107.960 Y118.870 E0.00978
G1 X108.203 Y119.897 E0.03311
G1 X108.724 Y120.810 E0.03297
G1 X122.400 Y134.762 E0.61253
G1 X123.702 Y135.428 E0.04588
G1 X124.234 Y135.507 E0.01687
G1 X124.980 Y135.517 E0.02338
G1 X125.947 Y135.301 E0.03105
G1 X126.818 Y134.808 E0.03139
G1 X141.308 Y120.764 E0.63271
G1 X141.768 Y119.952 E0.02926
G1 X142.045 Y118.886 E0.03451
G1 X142.045 Y118.528 E0.01124
G1 X142.045 Y117.947 F10800.000
G1 F1200.000
G1 X142.045 Y114.451 E0.10961
G1 X143.654 Y114.451 E0.05046
G1 X144.202 Y114.426 E0.01721
G1 X144.806 Y114.350 E0.01909
G1 X145.185 Y114.269 E0.01214
G1 X145.835 Y114.089 F10800.000
G1 F1200.000
G1 X146.506 Y113.837 E0.02248
G1 X146.978 Y113.607 E0.01647
G1 X147.547 Y113.269 E0.02075
G1 X148.027 Y112.925 E0.01852
G1 X148.466 Y112.552 E0.01807
G1 X148.935 Y112.078 E0.02090
G1 X149.313 Y111.622 E0.01856
G1 X149.641 Y111.153 E0.01795
G1 X149.930 Y110.663 E0.01785
G1 X150.182 Y110.144 E0.01809
G1 X150.389 Y109.612 E0.01788
G1 X150.556 Y109.056 E0.01821
G1 X150.692 Y108.402 E0.02096
G1 X150.759 Y107.849 E0.01745
G1 X150.782 Y107.305 E0.01707
G1 X150.781 Y104.797 E0.07863
G1 X150.756 Y104.251 E0.01714
G1 X150.680 Y103.662 E0.01864
G1 X150.551 Y103.062 E0.01924
G1 X150.369 Y102.469 E0.01945
G1 X150.170 Y101.967 E0.01694
G1 X149.933 Y101.481 E0.01694
G1 X149.623 Y100.957 E0.01910
G1 X149.224 Y100.402 E0.02143
G1 X148.867 Y99.986 E0.01718
G1 X148.470 Y99.591 E0.01756
G1 X147.968 Y99.169 E0.02056
G1 X147.511 Y98.845 E0.01756
