; generated by PrusaSlicer 2.2.0+win64 on 2020-07-21 at 17:23:06 UTC

; 

; external perimeters extrusion width = 0.45mm
; perimeters extrusion width = 0.45mm
; infill extrusion width = 0.45mm
; solid infill extrusion width = 0.45mm
; top infill extrusion width = 0.40mm
; support material extrusion width = 0.35mm
; first layer extrusion width = 0.42mm

M73 P0 R22
M73 Q0 S22
M201 X1000 Y1000 Z200 E5000 ; sets maximum accelerations, mm/sec^2
M203 X200 Y200 Z12 E120 ; sets maximum feedrates, mm/sec
M204 P1250 R1250 T1250 ; sets acceleration (P, T) and retract acceleration (R), mm/sec^2
M205 X8.00 Y8.00 Z0.40 E4.50 ; sets the jerk limits, mm/sec
M205 S0 T0 ; sets the minimum extruding and travel feed rate, mm/sec
M107
M862.3 P "MK3S" ; printer model check
M862.1 P0.4 ; nozzle diameter check
M115 U3.9.0 ; tell printer latest fw version
G90 ; use absolute coordinates
M83 ; extruder relative mode
M104 S215 ; set extruder temp
M140 S60 ; set bed temp
M190 S60 ; wait for bed temp
M109 S215 ; wait for extruder temp
G28 W ; home all without mesh bed level
G80 ; mesh bed leveling
G1 Y-3.0 F1000.0 ; go outside print area
G92 E0.0
G1 X60.0 E9.0 F1000.0 ; intro line
M73 Q0 S22
M73 P0 R22
G1 X100.0 E12.5 F1000.0 ; intro line
G92 E0.0
M221 S95
G21 ; set units to millimeters
G90 ; use absolute coordinates
M83 ; use relative distances for extrusion
M900 K0.06 ; Filament gcode LA 1.5
M900 K30 ; Filament gcode LA 1.0
;BEFORE_LAYER_CHANGE
G92 E0.0
;0.2


G1 E-0.80000 F2100.00000
G1 Z0.600 F10800.000
;AFTER_LAYER_CHANGE
;0.2
G1 X107.759 Y64.590
G1 Z0.200
G1 E0.80000 F2100.00000
M204 S1000
G1 F1200.000
G1 X109.163 Y62.704 E0.07372
G1 X110.796 Y60.935 E0.07550
G1 X112.606 Y59.352 E0.07540
G1 X114.528 Y57.998 E0.07371
G1 X115.672 Y57.324 E0.04162
G1 X117.837 Y56.279 E0.07537
G1 X120.049 Y55.484 E0.07371
G1 X122.389 Y54.912 E0.07552
G1 X124.772 Y54.593 E0.07539
G1 X127.122 Y54.528 E0.07371
G1 X129.519 Y54.713 E0.07538
G1 X130.829 Y54.924 E0.04159
G1 X133.112 Y55.485 E0.07371
G1 X135.378 Y56.302 E0.07551
G1 X137.540 Y57.353 E0.07539
G1 X139.535 Y58.598 E0.07372
G1 X141.430 Y60.078 E0.07538
G1 X142.408 Y60.981 E0.04174
G1 X143.998 Y62.707 E0.07357
G1 X145.434 Y64.640 E0.07550
G1 X146.654 Y66.712 E0.07540
G1 X147.630 Y68.855 E0.07383
G1 X148.405 Y71.187 E0.07706
G1 X148.905 Y73.485 E0.07372
G1 X149.082 Y74.804 E0.04173
G1 X149.203 Y77.204 E0.07536
G1 X149.076 Y79.552 E0.07372
G1 X148.693 Y81.930 E0.07551
G1 X148.060 Y84.249 E0.07539
G1 X147.206 Y86.440 E0.07373
G1 X146.626 Y87.634 E0.04161
G1 X145.400 Y89.701 E0.07536
G1 X143.996 Y91.587 E0.07372
G1 X142.362 Y93.356 E0.07551
G1 X140.552 Y94.940 E0.07539
G1 X138.630 Y96.293 E0.07372
G1 X136.530 Y97.464 E0.07540
G1 X135.318 Y98.014 E0.04172
G1 X133.106 Y98.809 E0.07369
G1 X130.770 Y99.379 E0.07539
G1 X128.383 Y99.698 E0.07551
G1 X125.979 Y99.763 E0.07539
G1 X123.579 Y99.571 E0.07550
G1 X121.268 Y99.138 E0.07372
G1 X119.987 Y98.788 E0.04162
G1 X117.729 Y97.967 E0.07536
G1 X115.615 Y96.936 E0.07372
G1 X113.574 Y95.659 E0.07551
G1 X111.682 Y94.174 E0.07539
G1 X109.996 Y92.536 E0.07371
G1 X109.122 Y91.537 E0.04162
G1 X107.694 Y89.603 E0.07537
G1 X106.503 Y87.577 E0.07371
G1 X105.507 Y85.384 E0.07551
G1 X104.752 Y83.101 E0.07539
G1 X104.253 Y80.803 E0.07372
G1 X104.077 Y79.488 E0.04161
G1 X103.955 Y77.087 E0.07536
G1 X104.083 Y74.739 E0.07372
G1 X104.466 Y72.362 E0.07552
G1 X105.099 Y70.042 E0.07539
G1 X105.953 Y67.851 E0.07372
G1 X106.533 Y66.658 E0.04161
G1 X107.728 Y64.642 E0.07348
G1 F8640.000
G1 X109.163 Y62.704 E-0.55667
G1 X109.760 Y62.057 E-0.20333
G1 E-0.04000 F2100.00000
G1 Z0.800 F10800.000
G1 X105.747 Y63.402
G1 Z0.200
G1 E0.80000 F2100.00000
G1 F1200.000
G1 X106.579 Y62.212 E0.04554
G1 X107.402 Y61.169 E0.04166
G1 X108.279 Y60.171 E0.04165
G1 X109.208 Y59.221 E0.04166
G1 X110.171 Y58.336 E0.04101
G1 X111.186 Y57.496 E0.04132
G1 X112.245 Y56.711 E0.04131
G1 X113.334 Y55.988 E0.04100
G1 X114.461 Y55.324 E0.04100
G1 X115.629 Y54.714 E0.04132
G1 X116.828 Y54.168 E0.04131
G1 X118.045 Y53.689 E0.04099
G1 X119.305 Y53.268 E0.04165
G1 X120.586 Y52.915 E0.04167
G1 X121.884 Y52.630 E0.04168
G1 X123.196 Y52.415 E0.04170
G1 X124.656 Y52.259 E0.04602
G1 X125.932 Y52.193 E0.04005
G1 X127.218 Y52.193 E0.04033
G1 X128.533 Y52.261 E0.04130
G1 X129.855 Y52.400 E0.04166
G1 X131.157 Y52.608 E0.04134
G1 X132.456 Y52.886 E0.04165
G1 X133.729 Y53.230 E0.04134
G1 X134.991 Y53.645 E0.04167
G1 X136.230 Y54.126 E0.04166
G1 X137.431 Y54.667 E0.04132
G1 X138.612 Y55.276 E0.04165
G1 X139.759 Y55.948 E0.04168
G1 X140.868 Y56.679 E0.04166
G1 X141.938 Y57.469 E0.04170
G1 X143.059 Y58.398 E0.04565
G1 X143.997 Y59.266 E0.04005
G1 X144.881 Y60.172 E0.03972
G1 X145.757 Y61.169 E0.04161
G1 X146.580 Y62.212 E0.04166
G1 X147.347 Y63.298 E0.04167
G1 X148.054 Y64.423 E0.04167
G1 X148.701 Y65.584 E0.04167
G1 X149.286 Y66.778 E0.04170
G1 X149.852 Y68.120 E0.04567
G1 X150.293 Y69.353 E0.04104
G1 X150.671 Y70.615 E0.04131
G1 X150.980 Y71.885 E0.04100
G1 X151.222 Y73.171 E0.04101
G1 X151.397 Y74.476 E0.04131
G1 X151.503 Y75.779 E0.04099
G1 X151.540 Y77.086 E0.04099
G1 X151.509 Y78.405 E0.04135
G1 X151.393 Y79.857 E0.04568
G1 X151.213 Y81.175 E0.04170
G1 X150.964 Y82.480 E0.04165
G1 X150.651 Y83.750 E0.04101
G1 X150.269 Y85.011 E0.04133
G1 X149.821 Y86.251 E0.04134
G1 X149.312 Y87.456 E0.04100
G1 X148.736 Y88.641 E0.04131
G1 X148.104 Y89.785 E0.04100
G1 X147.407 Y90.903 E0.04130
G1 X146.657 Y91.976 E0.04104
G1 X145.750 Y93.131 E0.04604
G1 X144.871 Y94.130 E0.04172
G1 X143.942 Y95.079 E0.04164
G1 X142.972 Y95.970 E0.04132
G1 X141.964 Y96.802 E0.04099
G1 X140.913 Y97.581 E0.04100
G1 X139.814 Y98.309 E0.04132
G1 X138.688 Y98.974 E0.04102
G1 X137.519 Y99.582 E0.04132
G1 X136.320 Y100.128 E0.04131
G1 X135.101 Y100.607 E0.04105
G1 X133.718 Y101.064 E0.04569
G1 X132.434 Y101.411 E0.04170
G1 X131.135 Y101.688 E0.04165
G1 X129.844 Y101.892 E0.04098
G1 X128.544 Y102.029 E0.04098
G1 X127.238 Y102.098 E0.04099
G1 X125.941 Y102.099 E0.04067
G1 X124.626 Y102.030 E0.04130
G1 X123.315 Y101.893 E0.04132
G1 X122.013 Y101.686 E0.04133
G1 X120.723 Y101.410 E0.04136
G1 X119.306 Y101.024 E0.04606
G1 X118.044 Y100.602 E0.04171
G1 X116.808 Y100.115 E0.04167
G1 X115.609 Y99.567 E0.04133
G1 X114.442 Y98.957 E0.04130
G1 X113.316 Y98.292 E0.04100
G1 X112.219 Y97.562 E0.04132
G1 X111.169 Y96.782 E0.04099
G1 X110.155 Y95.942 E0.04131
G1 X109.193 Y95.056 E0.04100
G1 X108.272 Y94.113 E0.04132
G1 X107.395 Y93.115 E0.04166
G1 X106.577 Y92.078 E0.04139
G1 X105.740 Y90.886 E0.04568
G1 X105.044 Y89.766 E0.04135
G1 X104.403 Y88.602 E0.04167
G1 X103.824 Y87.406 E0.04166
G1 X103.311 Y86.181 E0.04165
G1 X102.866 Y84.940 E0.04131
G1 X102.491 Y83.688 E0.04100
G1 X102.179 Y82.407 E0.04132
G1 X101.937 Y81.122 E0.04100
G1 X101.761 Y79.816 E0.04132
G1 X101.656 Y78.513 E0.04101
G1 X101.618 Y77.196 E0.04131
G1 X101.650 Y75.888 E0.04101
G1 X101.752 Y74.564 E0.04165
G1 X101.925 Y73.245 E0.04171
G1 X102.194 Y71.813 E0.04569
G1 X102.508 Y70.542 E0.04104
G1 X102.890 Y69.281 E0.04131
G1 X103.338 Y68.041 E0.04132
G1 X103.846 Y66.837 E0.04099
G1 X104.412 Y65.670 E0.04065
G1 X105.039 Y64.533 E0.04071
G1 X105.715 Y63.453 E0.03996
G1 X106.034 Y63.653 F10800.000
G1 F1200.000
G1 X106.878 Y62.441 E0.04629
G1 X107.688 Y61.414 E0.04103
G1 X108.552 Y60.431 E0.04103
G1 X109.467 Y59.495 E0.04103
G1 X110.415 Y58.623 E0.04039
G1 X111.415 Y57.796 E0.04070
G1 X112.457 Y57.023 E0.04069
G1 X113.539 Y56.305 E0.04069
G1 X114.648 Y55.651 E0.04038
G1 X115.799 Y55.051 E0.04070
G1 X116.980 Y54.513 E0.04069
G1 X118.178 Y54.042 E0.04037
G1 X119.419 Y53.627 E0.04102
G1 X120.681 Y53.280 E0.04104
G1 X121.960 Y53.000 E0.04105
G1 X123.252 Y52.788 E0.04106
G1 X124.681 Y52.635 E0.04504
G1 X125.946 Y52.570 E0.03974
G1 X127.213 Y52.570 E0.03972
G1 X128.509 Y52.637 E0.04068
G1 X129.810 Y52.775 E0.04103
G1 X131.092 Y52.979 E0.04072
G1 X132.372 Y53.254 E0.04103
G1 X133.625 Y53.593 E0.04072
G1 X134.869 Y54.001 E0.04104
G1 X136.089 Y54.475 E0.04103
G1 X137.272 Y55.009 E0.04069
G1 X138.434 Y55.609 E0.04102
G1 X139.564 Y56.270 E0.04105
G1 X140.656 Y56.991 E0.04103
G1 X141.710 Y57.769 E0.04106
G1 X142.807 Y58.678 E0.04467
G1 X143.730 Y59.532 E0.03944
G1 X144.608 Y60.432 E0.03941
G1 X145.471 Y61.414 E0.04099
G1 X146.281 Y62.442 E0.04103
G1 X147.036 Y63.511 E0.04104
G1 X147.733 Y64.619 E0.04104
G1 X148.369 Y65.763 E0.04104
G1 X148.945 Y66.939 E0.04106
G1 X149.498 Y68.252 E0.04468
G1 X149.933 Y69.466 E0.04041
G1 X150.306 Y70.709 E0.04069
G1 X150.612 Y71.970 E0.04069
G1 X150.850 Y73.235 E0.04039
G1 X151.023 Y74.522 E0.04069
G1 X151.127 Y75.805 E0.04037
G1 X151.163 Y77.092 E0.04037
G1 X151.132 Y78.390 E0.04072
G1 X151.018 Y79.811 E0.04469
G1 X150.842 Y81.109 E0.04107
G1 X150.597 Y82.394 E0.04103
G1 X150.289 Y83.645 E0.04039
G1 X149.912 Y84.888 E0.04071
G1 X149.471 Y86.109 E0.04071
G1 X148.966 Y87.304 E0.04069
G1 X148.399 Y88.471 E0.04069
G1 X147.776 Y89.598 E0.04037
G1 X147.090 Y90.699 E0.04068
G1 X146.351 Y91.756 E0.04041
G1 X145.464 Y92.886 E0.04505
G1 X144.598 Y93.870 E0.04109
G1 X143.683 Y94.804 E0.04101
G1 X142.728 Y95.682 E0.04070
G1 X141.735 Y96.502 E0.04037
G1 X140.700 Y97.270 E0.04038
G1 X139.619 Y97.987 E0.04069
G1 X138.500 Y98.646 E0.04070
G1 X137.349 Y99.245 E0.04070
G1 X136.168 Y99.783 E0.04068
G1 X134.968 Y100.254 E0.04042
G1 X133.615 Y100.702 E0.04470
G1 X132.350 Y101.043 E0.04106
G1 X131.070 Y101.316 E0.04103
G1 X129.799 Y101.518 E0.04036
G1 X128.519 Y101.653 E0.04036
G1 X127.233 Y101.721 E0.04037
G1 X125.946 Y101.722 E0.04036
G1 X124.650 Y101.654 E0.04068
G1 X123.359 Y101.518 E0.04070
G1 X122.077 Y101.314 E0.04070
G1 X120.807 Y101.043 E0.04073
G1 X119.420 Y100.664 E0.04507
G1 X118.178 Y100.250 E0.04107
G1 X116.960 Y99.770 E0.04104
G1 X115.779 Y99.230 E0.04070
G1 X114.629 Y98.630 E0.04068
G1 X113.521 Y97.975 E0.04038
G1 X112.440 Y97.256 E0.04069
G1 X111.406 Y96.489 E0.04037
G1 X110.406 Y95.661 E0.04069
G1 X109.452 Y94.782 E0.04069
G1 X108.545 Y93.853 E0.04069
G1 X107.682 Y92.870 E0.04103
G1 X106.877 Y91.849 E0.04076
G1 X106.058 Y90.682 E0.04470
G1 X105.372 Y89.580 E0.04072
G1 X104.740 Y88.434 E0.04104
G1 X104.170 Y87.255 E0.04104
G1 X103.664 Y86.049 E0.04102
G1 X103.226 Y84.827 E0.04069
G1 X102.856 Y83.594 E0.04038
G1 X102.549 Y82.333 E0.04069
G1 X102.308 Y81.057 E0.04069
G1 X102.136 Y79.771 E0.04069
G1 X102.032 Y78.487 E0.04038
G1 X101.995 Y77.190 E0.04069
G1 X102.027 Y75.902 E0.04039
G1 X102.128 Y74.598 E0.04102
G1 X102.298 Y73.299 E0.04107
G1 X102.562 Y71.898 E0.04470
G1 X102.873 Y70.637 E0.04072
G1 X103.249 Y69.395 E0.04069
G1 X103.691 Y68.174 E0.04070
G1 X104.192 Y66.988 E0.04037
G1 X104.749 Y65.839 E0.04004
G1 X105.367 Y64.720 E0.04009
G1 X106.002 Y63.704 E0.03759
G1 X106.322 Y63.904 F10800.000
G1 F1200.000
G1 X107.177 Y62.671 E0.04704
G1 X107.975 Y61.659 E0.04040
G1 X108.825 Y60.691 E0.04040
G1 X109.726 Y59.769 E0.04040
G1 X110.659 Y58.910 E0.03977
G1 X111.644 Y58.096 E0.04007
G1 X112.670 Y57.334 E0.04006
G1 X113.735 Y56.628 E0.04007
G1 X114.835 Y55.978 E0.04007
G1 X115.969 Y55.388 E0.04008
G1 X117.132 Y54.858 E0.04007
G1 X118.312 Y54.394 E0.03975
G1 X119.534 Y53.987 E0.04040
G1 X120.776 Y53.645 E0.04041
G1 X122.036 Y53.369 E0.04042
G1 X123.308 Y53.161 E0.04043
G1 X124.705 Y53.011 E0.04406
G1 X125.951 Y52.947 E0.03912
G1 X127.198 Y52.947 E0.03910
G1 X128.484 Y53.014 E0.04037
G1 X129.765 Y53.149 E0.04040
G1 X131.028 Y53.351 E0.04009
G1 X132.288 Y53.621 E0.04040
G1 X133.522 Y53.956 E0.04009
G1 X134.746 Y54.358 E0.04042
G1 X135.947 Y54.825 E0.04040
G1 X137.112 Y55.350 E0.04007
G1 X138.257 Y55.942 E0.04039
G1 X139.369 Y56.593 E0.04042
G1 X140.444 Y57.303 E0.04040
G1 X141.481 Y58.069 E0.04043
G1 X142.555 Y58.959 E0.04370
G1 X143.463 Y59.799 E0.03882
G1 X144.334 Y60.692 E0.03910
G1 X145.184 Y61.659 E0.04037
G1 X145.982 Y62.671 E0.04040
G1 X146.725 Y63.724 E0.04041
G1 X147.411 Y64.815 E0.04041
G1 X148.037 Y65.942 E0.04041
G1 X148.603 Y67.100 E0.04043
G1 X149.145 Y68.385 E0.04371
G1 X149.573 Y69.579 E0.03978
G1 X149.940 Y70.803 E0.04006
G1 X150.243 Y72.044 E0.04006
G1 X150.479 Y73.300 E0.04007
G1 X150.648 Y74.567 E0.04006
G1 X150.750 Y75.830 E0.03975
G1 X150.786 Y77.097 E0.03975
G1 X150.755 Y78.376 E0.04010
G1 X150.644 Y79.765 E0.04371
G1 X150.470 Y81.043 E0.04043
G1 X150.229 Y82.309 E0.04040
G1 X149.924 Y83.550 E0.04008
G1 X149.553 Y84.774 E0.04008
G1 X149.118 Y85.976 E0.04009
G1 X148.621 Y87.153 E0.04006
G1 X148.062 Y88.302 E0.04006
G1 X147.449 Y89.412 E0.03975
G1 X146.772 Y90.495 E0.04006
G1 X146.045 Y91.535 E0.03978
G1 X145.177 Y92.641 E0.04407
G1 X144.325 Y93.610 E0.04045
G1 X143.424 Y94.530 E0.04038
G1 X142.484 Y95.395 E0.04007
G1 X141.506 Y96.202 E0.03975
G1 X140.480 Y96.964 E0.04007
G1 X139.415 Y97.670 E0.04007
G1 X138.313 Y98.319 E0.04008
G1 X137.179 Y98.908 E0.04007
G1 X136.016 Y99.437 E0.04006
G1 X134.835 Y99.901 E0.03979
G1 X133.511 Y100.339 E0.04372
G1 X132.266 Y100.675 E0.04043
G1 X131.006 Y100.944 E0.04040
G1 X129.754 Y101.144 E0.03974
G1 X128.494 Y101.277 E0.03975
G1 X127.228 Y101.344 E0.03975
G1 X125.960 Y101.345 E0.03974
G1 X124.685 Y101.278 E0.04005
G1 X123.404 Y101.144 E0.04038
G1 X122.142 Y100.943 E0.04007
G1 X120.891 Y100.675 E0.04010
G1 X119.535 Y100.305 E0.04409
G1 X118.311 Y99.897 E0.04044
G1 X117.112 Y99.425 E0.04041
G1 X115.949 Y98.894 E0.04008
G1 X114.817 Y98.303 E0.04006
G1 X113.725 Y97.658 E0.03976
G1 X112.660 Y96.951 E0.04007
G1 X111.635 Y96.189 E0.04006
G1 X110.651 Y95.374 E0.04007
G1 X109.711 Y94.508 E0.04007
G1 X108.825 Y93.601 E0.03976
G1 X107.975 Y92.633 E0.04040
G1 X107.176 Y91.620 E0.04044
G1 X106.375 Y90.479 E0.04371
G1 X105.699 Y89.393 E0.04008
G1 X105.077 Y88.265 E0.04041
G1 X104.516 Y87.105 E0.04041
G1 X104.017 Y85.917 E0.04039
G1 X103.586 Y84.714 E0.04007
G1 X103.221 Y83.499 E0.03976
G1 X102.918 Y82.258 E0.04007
G1 X102.681 Y81.002 E0.04007
G1 X102.511 Y79.735 E0.04007
G1 X102.409 Y78.471 E0.03976
G1 X102.372 Y77.194 E0.04007
G1 X102.404 Y75.916 E0.04007
G1 X102.503 Y74.632 E0.04039
G1 X102.671 Y73.353 E0.04044
G1 X102.929 Y71.983 E0.04372
G1 X103.235 Y70.741 E0.04009
G1 X103.605 Y69.518 E0.04007
G1 X104.040 Y68.316 E0.04008
G1 X104.533 Y67.148 E0.03975
G1 X105.086 Y66.009 E0.03973
G1 X105.694 Y64.907 E0.03946
G1 X106.290 Y63.954 E0.03522
G1 X106.609 Y64.154 F10800.000
G1 F1200.000
G1 X107.476 Y62.900 E0.04780
G1 X108.261 Y61.904 E0.03977
G1 X109.098 Y60.951 E0.03977
G1 X109.985 Y60.043 E0.03977
G1 X110.911 Y59.191 E0.03945
G1 X111.880 Y58.389 E0.03945
G1 X112.890 Y57.640 E0.03944
G1 X113.939 Y56.945 E0.03944
G1 X115.023 Y56.306 E0.03944
G1 X116.139 Y55.725 E0.03945
G1 X117.284 Y55.204 E0.03944
G1 X118.445 Y54.747 E0.03912
G1 X119.648 Y54.346 E0.03977
G1 X120.872 Y54.009 E0.03978
G1 X122.111 Y53.739 E0.03979
G1 X123.364 Y53.534 E0.03979
G1 X124.730 Y53.388 E0.04308
G1 X125.966 Y53.324 E0.03881
G1 X127.193 Y53.324 E0.03848
G1 X128.459 Y53.390 E0.03975
G1 X129.721 Y53.524 E0.03977
G1 X130.963 Y53.722 E0.03946
G1 X132.204 Y53.989 E0.03977
G1 X133.418 Y54.318 E0.03946
G1 X134.624 Y54.715 E0.03979
G1 X135.806 Y55.174 E0.03977
G1 X136.952 Y55.692 E0.03944
G1 X138.079 Y56.274 E0.03976
G1 X139.174 Y56.916 E0.03979
G1 X140.232 Y57.615 E0.03977
G1 X141.253 Y58.369 E0.03979
G1 X142.302 Y59.239 E0.04273
G1 X143.204 Y60.073 E0.03851
G1 X144.061 Y60.951 E0.03849
G1 X144.897 Y61.904 E0.03975
G1 X145.683 Y62.901 E0.03978
G1 X146.414 Y63.937 E0.03978
G1 X147.089 Y65.012 E0.03978
G1 X147.705 Y66.121 E0.03978
G1 X148.262 Y67.261 E0.03980
G1 X148.792 Y68.517 E0.04273
G1 X149.214 Y69.692 E0.03915
G1 X149.575 Y70.897 E0.03944
G1 X149.873 Y72.119 E0.03944
G1 X150.106 Y73.355 E0.03945
G1 X150.273 Y74.602 E0.03944
G1 X150.374 Y75.856 E0.03943
G1 X150.409 Y77.103 E0.03912
G1 X150.378 Y78.361 E0.03947
G1 X150.270 Y79.720 E0.04274
G1 X150.099 Y80.978 E0.03980
G1 X149.862 Y82.224 E0.03977
G1 X149.561 Y83.446 E0.03945
G1 X149.197 Y84.650 E0.03946
G1 X148.769 Y85.834 E0.03946
G1 X148.280 Y86.993 E0.03944
G1 X147.730 Y88.124 E0.03944
G1 X147.126 Y89.216 E0.03913
G1 X146.461 Y90.283 E0.03943
G1 X145.739 Y91.315 E0.03946
G1 X144.891 Y92.396 E0.04309
G1 X144.052 Y93.349 E0.03981
G1 X143.166 Y94.256 E0.03976
G1 X142.239 Y95.107 E0.03945
G1 X141.270 Y95.909 E0.03944
