; generated by PrusaSlicer 2.2.0+win64 on 2020-07-30 at 11:16:28 UTC

; 

; external perimeters extrusion width = 0.45mm
; perimeters extrusion width = 0.45mm
; infill extrusion width = 0.45mm
; solid infill extrusion width = 0.45mm
; top infill extrusion width = 0.40mm
; support material extrusion width = 0.35mm
; first layer extrusion width = 0.42mm

M73 P0 R27
M73 Q0 S27
M201 X1000 Y1000 Z200 E5000 ; sets maximum accelerations, mm/sec^2
M203 X200 Y200 Z12 E120 ; sets maximum feedrates, mm/sec
M204 P1250 R1250 T1250 ; sets acceleration (P, T) and retract acceleration (R), mm/sec^2
M205 X8.00 Y8.00 Z0.40 E4.50 ; sets the jerk limits, mm/sec
M205 S0 T0 ; sets the minimum extruding and travel feed rate, mm/sec
M107
M862.3 P "MK3S" ; printer model check
M862.1 P0.4 ; nozzle diameter check
M115 U3.9.0 ; tell printer latest fw version
G90 ; use absolute coordinates
M83 ; extruder relative mode
M104 S215 ; set extruder temp
M140 S60 ; set bed temp
M190 S60 ; wait for bed temp
M109 S215 ; wait for extruder temp
G28 W ; home all without mesh bed level
G80 ; mesh bed leveling
G1 Y-3.0 F1000.0 ; go outside print area
G92 E0.0
G1 X60.0 E9.0 F1000.0 ; intro line
M73 Q0 S27
M73 P0 R27
G1 X100.0 E12.5 F1000.0 ; intro line
G92 E0.0
M221 S95
G21 ; set units to millimeters
G90 ; use absolute coordinates
M83 ; use relative distances for extrusion
M900 K0.06 ; Filament gcode LA 1.5
M900 K30 ; Filament gcode LA 1.0
;BEFORE_LAYER_CHANGE
G92 E0.0
;0.2


G1 E-0.80000 F2100.00000
G1 Z0.600 F10800.000
;AFTER_LAYER_CHANGE
;0.2
G1 X102.219 Y89.049
G1 Z0.200
G1 E0.80000 F2100.00000
M204 S1000
G1 F1200.000
G1 X104.197 Y86.906 E0.09143
G1 X106.388 Y84.988 E0.09132
G1 X108.726 Y83.343 E0.08964
G1 X111.271 Y81.926 E0.09131
G1 X112.714 Y81.271 E0.04970
G1 X115.400 Y80.305 E0.08950
G1 X118.233 Y79.613 E0.09143
G1 X121.120 Y79.227 E0.09131
G1 X123.978 Y79.148 E0.08964
G1 X125.557 Y79.232 E0.04958
G1 X128.441 Y79.625 E0.09129
G1 X131.218 Y80.306 E0.08964
G1 X133.961 Y81.295 E0.09143
G1 X136.580 Y82.569 E0.09131
G1 X139.005 Y84.083 E0.08965
G1 X141.300 Y85.876 E0.09131
G1 X142.464 Y86.952 E0.04970
G1 X144.399 Y89.051 E0.08950
G1 X146.138 Y91.392 E0.09144
G1 X147.616 Y93.901 E0.09131
G1 X148.800 Y96.503 E0.08965
G1 X149.721 Y99.266 E0.09131
G1 X150.097 Y100.806 E0.04970
G1 X150.549 Y103.628 E0.08961
G1 X150.703 Y106.593 E0.09310
G1 X150.548 Y109.448 E0.08964
G1 X150.084 Y112.327 E0.09143
G1 X149.318 Y115.137 E0.09132
G1 X148.279 Y117.800 E0.08964
G1 X146.942 Y120.387 E0.09131
G1 X146.104 Y121.728 E0.04956
G1 X144.397 Y124.021 E0.08964
G1 X142.419 Y126.164 E0.09143
G1 X140.227 Y128.081 E0.09132
G1 X137.889 Y129.727 E0.08964
G1 X135.345 Y131.143 E0.09130
G1 X133.901 Y131.798 E0.04970
G1 X131.215 Y132.764 E0.08949
G1 X128.383 Y133.456 E0.09143
G1 X125.492 Y133.843 E0.09143
G1 X122.581 Y133.921 E0.09132
G1 X119.674 Y133.688 E0.09143
G1 X116.864 Y133.161 E0.08964
G1 X115.339 Y132.745 E0.04957
G1 X112.602 Y131.751 E0.09129
G1 X110.032 Y130.499 E0.08964
G1 X107.560 Y128.952 E0.09144
G1 X105.269 Y127.153 E0.09131
G1 X103.219 Y125.161 E0.08964
G1 X102.178 Y123.970 E0.04958
G1 X100.447 Y121.630 E0.09128
G1 X98.997 Y119.165 E0.08965
G1 X97.793 Y116.510 E0.09143
G1 X96.878 Y113.745 E0.09131
G1 X96.271 Y110.951 E0.08964
G1 X95.955 Y108.056 E0.09131
G1 X95.913 Y106.476 E0.04955
G1 X96.068 Y103.621 E0.08964
G1 X96.531 Y100.742 E0.09143
G1 X97.298 Y97.933 E0.09131
G1 X98.336 Y95.269 E0.08964
G1 X99.028 Y93.847 E0.04958
G1 X100.512 Y91.342 E0.09128
G1 X102.183 Y89.097 E0.08776
G1 F8640.000
G1 X104.197 Y86.906 E-0.68710
G1 X104.434 Y86.698 E-0.07290
G1 E-0.04000 F2100.00000
G1 Z0.800 F10800.000
G1 X100.344 Y87.654
G1 Z0.200
G1 E0.80000 F2100.00000
G1 F1200.000
G1 X101.443 Y86.388 E0.05256
G1 X102.531 Y85.267 E0.04897
G1 X103.676 Y84.205 E0.04898
G1 X104.892 Y83.192 E0.04962
G1 X106.162 Y82.245 E0.04966
G1 X107.595 Y81.294 E0.05395
G1 X108.934 Y80.508 E0.04867
G1 X110.320 Y79.790 E0.04894
G1 X111.732 Y79.149 E0.04863
G1 X113.176 Y78.582 E0.04864
G1 X114.668 Y78.086 E0.04929
G1 X116.194 Y77.666 E0.04962
G1 X117.741 Y77.329 E0.04964
G1 X119.293 Y77.075 E0.04932
G1 X120.992 Y76.893 E0.05358
G1 X122.532 Y76.813 E0.04836
G1 X124.083 Y76.813 E0.04863
G1 X125.653 Y76.895 E0.04928
G1 X127.217 Y77.061 E0.04931
G1 X128.770 Y77.309 E0.04931
G1 X130.307 Y77.638 E0.04930
G1 X131.835 Y78.052 E0.04963
G1 X133.340 Y78.546 E0.04966
G1 X134.921 Y79.165 E0.05325
G1 X136.334 Y79.808 E0.04867
G1 X137.711 Y80.524 E0.04865
G1 X139.056 Y81.316 E0.04896
G1 X140.350 Y82.172 E0.04864
G1 X141.622 Y83.113 E0.04961
G1 X142.843 Y84.121 E0.04966
G1 X144.099 Y85.281 E0.05361
G1 X145.194 Y86.411 E0.04932
G1 X146.221 Y87.588 E0.04896
G1 X147.184 Y88.817 E0.04897
G1 X148.087 Y90.104 E0.04929
G1 X148.921 Y91.436 E0.04928
G1 X149.678 Y92.802 E0.04898
G1 X150.367 Y94.215 E0.04929
G1 X150.977 Y95.653 E0.04898
G1 X151.517 Y97.141 E0.04961
G1 X151.977 Y98.655 E0.04964
G1 X152.355 Y100.192 E0.04962
G1 X152.650 Y101.738 E0.04934
G1 X152.879 Y103.443 E0.05396
G1 X153.001 Y105.023 E0.04967
G1 X153.040 Y106.605 E0.04962
G1 X152.995 Y108.166 E0.04897
G1 X152.867 Y109.732 E0.04928
G1 X152.659 Y111.280 E0.04896
G1 X152.367 Y112.825 E0.04929
G1 X151.996 Y114.342 E0.04897
G1 X151.547 Y115.838 E0.04897
G1 X151.019 Y117.308 E0.04897
G1 X150.411 Y118.757 E0.04927
G1 X149.723 Y120.181 E0.04961
G1 X148.959 Y121.568 E0.04963
G1 X148.122 Y122.912 E0.04964
G1 X147.216 Y124.209 E0.04963
G1 X146.241 Y125.457 E0.04963
G1 X145.201 Y126.651 E0.04966
G1 X144.009 Y127.876 E0.05360
G1 X142.859 Y128.935 E0.04901
G1 X141.647 Y129.937 E0.04928
G1 X140.393 Y130.867 E0.04897
G1 X139.083 Y131.736 E0.04929
G1 X137.729 Y132.535 E0.04929
G1 X136.344 Y133.256 E0.04897
G1 X134.922 Y133.904 E0.04897
G1 X133.459 Y134.480 E0.04932
G1 X131.836 Y135.017 E0.05361
G1 X130.307 Y135.431 E0.04965
G1 X128.760 Y135.763 E0.04963
G1 X127.217 Y136.008 E0.04897
G1 X125.654 Y136.174 E0.04929
G1 X124.094 Y136.256 E0.04897
G1 X122.532 Y136.257 E0.04898
G1 X120.962 Y136.174 E0.04931
G1 X119.388 Y136.007 E0.04961
G1 X117.836 Y135.759 E0.04930
G1 X116.289 Y135.426 E0.04962
G1 X114.771 Y135.015 E0.04930
G1 X113.277 Y134.524 E0.04930
G1 X111.803 Y133.950 E0.04962
G1 X110.369 Y133.304 E0.04931
G1 X108.963 Y132.577 E0.04962
G1 X107.597 Y131.777 E0.04963
G1 X106.276 Y130.905 E0.04964
G1 X105.003 Y129.964 E0.04962
G1 X103.782 Y128.956 E0.04964
G1 X102.616 Y127.885 E0.04964
G1 X101.481 Y126.723 E0.05094
G1 X100.443 Y125.540 E0.04932
G1 X99.471 Y124.305 E0.04930
G1 X98.565 Y123.020 E0.04929
G1 X97.727 Y121.688 E0.04934
G1 X96.893 Y120.182 E0.05397
G1 X96.204 Y118.756 E0.04966
G1 X95.592 Y117.297 E0.04962
G1 X95.065 Y115.827 E0.04897
G1 X94.613 Y114.321 E0.04928
G1 X94.244 Y112.803 E0.04897
G1 X93.955 Y111.269 E0.04897
G1 X93.747 Y109.721 E0.04897
G1 X93.620 Y108.154 E0.04929
G1 X93.576 Y106.593 E0.04896
G1 X93.614 Y105.022 E0.04927
G1 X93.737 Y103.444 E0.04962
G1 X93.943 Y101.875 E0.04963
G1 X94.233 Y100.319 E0.04963
G1 X94.605 Y98.780 E0.04963
G1 X95.058 Y97.263 E0.04964
G1 X95.592 Y95.772 E0.04967
G1 X96.261 Y94.187 E0.05394
G1 X96.947 Y92.783 E0.04900
G1 X97.711 Y91.409 E0.04929
G1 X98.546 Y90.077 E0.04928
G1 X99.444 Y88.800 E0.04897
G1 X100.307 Y87.701 E0.04380
G1 X100.603 Y87.933 F10800.000
G1 F1200.000
G1 X101.717 Y86.647 E0.05335
G1 X102.791 Y85.540 E0.04835
G1 X103.929 Y84.485 E0.04866
G1 X105.130 Y83.485 E0.04899
G1 X106.383 Y82.550 E0.04903
G1 X107.791 Y81.616 E0.05297
G1 X109.112 Y80.840 E0.04804
G1 X110.480 Y80.131 E0.04832
G1 X111.875 Y79.498 E0.04801
G1 X113.310 Y78.935 E0.04833
G1 X114.782 Y78.445 E0.04867
G1 X116.289 Y78.031 E0.04899
G1 X117.816 Y77.698 E0.04901
G1 X119.349 Y77.448 E0.04869
G1 X121.017 Y77.269 E0.05261
G1 X122.547 Y77.190 E0.04804
G1 X124.078 Y77.190 E0.04801
G1 X125.628 Y77.272 E0.04865
G1 X127.172 Y77.435 E0.04868
G1 X128.705 Y77.680 E0.04868
G1 X130.223 Y78.006 E0.04867
G1 X131.732 Y78.414 E0.04900
G1 X133.217 Y78.903 E0.04902
G1 X134.770 Y79.510 E0.05228
G1 X136.164 Y80.145 E0.04805
G1 X137.532 Y80.856 E0.04834
G1 X138.860 Y81.639 E0.04833
G1 X140.138 Y82.484 E0.04802
G1 X141.393 Y83.413 E0.04899
G1 X142.599 Y84.409 E0.04902
G1 X143.832 Y85.548 E0.05263
G1 X144.913 Y86.663 E0.04870
G1 X145.927 Y87.824 E0.04834
G1 X146.878 Y89.038 E0.04834
G1 X147.770 Y90.308 E0.04866
G1 X148.593 Y91.623 E0.04866
G1 X149.341 Y92.972 E0.04835
G1 X150.022 Y94.367 E0.04866
G1 X150.628 Y95.796 E0.04867
G1 X151.160 Y97.264 E0.04898
G1 X151.614 Y98.760 E0.04901
G1 X151.988 Y100.277 E0.04899
G1 X152.279 Y101.803 E0.04870
G1 X152.503 Y103.478 E0.05298
G1 X152.624 Y105.037 E0.04903
G1 X152.662 Y106.599 E0.04899
G1 X152.619 Y108.140 E0.04835
G1 X152.493 Y109.687 E0.04865
G1 X152.287 Y111.215 E0.04834
G1 X151.999 Y112.740 E0.04867
G1 X151.631 Y114.248 E0.04866
G1 X151.187 Y115.724 E0.04834
G1 X150.666 Y117.175 E0.04835
G1 X150.066 Y118.606 E0.04865
G1 X149.385 Y120.013 E0.04899
G1 X148.631 Y121.381 E0.04900
G1 X147.805 Y122.708 E0.04901
G1 X146.910 Y123.989 E0.04900
G1 X145.947 Y125.221 E0.04900
G1 X144.920 Y126.400 E0.04903
G1 X143.750 Y127.602 E0.05262
G1 X142.614 Y128.647 E0.04838
G1 X141.419 Y129.637 E0.04866
G1 X140.181 Y130.556 E0.04835
G1 X138.887 Y131.414 E0.04867
G1 X137.550 Y132.203 E0.04867
G1 X136.174 Y132.920 E0.04866
G1 X134.771 Y133.559 E0.04834
G1 X133.326 Y134.127 E0.04869
G1 X131.732 Y134.655 E0.05263
G1 X130.223 Y135.063 E0.04901
G1 X128.695 Y135.391 E0.04900
G1 X127.173 Y135.634 E0.04834
G1 X125.629 Y135.798 E0.04867
G1 X124.089 Y135.879 E0.04835
G1 X122.537 Y135.879 E0.04866
G1 X120.987 Y135.798 E0.04868
G1 X119.433 Y135.633 E0.04898
G1 X117.900 Y135.387 E0.04867
G1 X116.373 Y135.059 E0.04899
G1 X114.875 Y134.652 E0.04867
G1 X113.400 Y134.167 E0.04867
G1 X111.944 Y133.601 E0.04899
G1 X110.529 Y132.962 E0.04868
G1 X109.140 Y132.245 E0.04900
G1 X107.792 Y131.454 E0.04900
G1 X106.488 Y130.593 E0.04901
G1 X105.231 Y129.664 E0.04899
G1 X104.026 Y128.669 E0.04901
G1 X102.875 Y127.611 E0.04900
G1 X101.754 Y126.463 E0.05031
G1 X100.730 Y125.296 E0.04869
G1 X99.770 Y124.076 E0.04867
G1 X98.876 Y122.807 E0.04867
G1 X98.049 Y121.492 E0.04871
G1 X97.230 Y120.013 E0.05299
G1 X96.550 Y118.606 E0.04903
G1 X95.945 Y117.165 E0.04899
G1 X95.425 Y115.713 E0.04834
G1 X94.979 Y114.227 E0.04866
G1 X94.612 Y112.719 E0.04866
G1 X94.327 Y111.204 E0.04834
G1 X94.121 Y109.676 E0.04834
G1 X93.996 Y108.129 E0.04866
G1 X93.953 Y106.588 E0.04834
G1 X93.991 Y105.036 E0.04865
G1 X94.112 Y103.479 E0.04899
G1 X94.316 Y101.929 E0.04900
G1 X94.603 Y100.393 E0.04900
G1 X94.970 Y98.874 E0.04900
G1 X95.418 Y97.376 E0.04901
G1 X95.945 Y95.904 E0.04903
G1 X96.602 Y94.348 E0.05297
G1 X97.279 Y92.961 E0.04837
G1 X98.033 Y91.605 E0.04866
G1 X98.857 Y90.290 E0.04866
G1 X99.744 Y89.029 E0.04835
G1 X100.566 Y87.981 E0.04177
G1 X100.863 Y88.213 F10800.000
G1 F1200.000
G1 X101.997 Y86.899 E0.05445
G1 X103.058 Y85.807 E0.04772
G1 X104.182 Y84.765 E0.04804
G1 X105.367 Y83.779 E0.04836
G1 X106.604 Y82.855 E0.04840
G1 X107.986 Y81.939 E0.05200
G1 X109.299 Y81.168 E0.04773
G1 X110.649 Y80.468 E0.04770
G1 X112.026 Y79.843 E0.04739
G1 X113.443 Y79.288 E0.04771
G1 X114.897 Y78.805 E0.04804
G1 X116.384 Y78.396 E0.04836
G1 X117.892 Y78.068 E0.04838
G1 X119.404 Y77.821 E0.04806
G1 X121.042 Y77.646 E0.05164
G1 X122.552 Y77.567 E0.04741
G1 X124.073 Y77.567 E0.04770
G1 X125.603 Y77.648 E0.04803
G1 X127.127 Y77.810 E0.04806
G1 X128.641 Y78.052 E0.04806
G1 X130.139 Y78.374 E0.04805
G1 X131.628 Y78.777 E0.04837
G1 X133.094 Y79.259 E0.04839
G1 X134.618 Y79.855 E0.05131
G1 X136.004 Y80.486 E0.04773
G1 X137.354 Y81.189 E0.04772
G1 X138.665 Y81.961 E0.04771
G1 X139.925 Y82.795 E0.04740
G1 X141.165 Y83.713 E0.04836
G1 X142.355 Y84.696 E0.04839
G1 X143.565 Y85.814 E0.05166
G1 X144.632 Y86.914 E0.04806
G1 X145.639 Y88.068 E0.04803
G1 X146.578 Y89.266 E0.04772
G1 X147.458 Y90.520 E0.04804
G1 X148.271 Y91.819 E0.04803
G1 X149.009 Y93.150 E0.04773
G1 X149.681 Y94.527 E0.04804
G1 X150.279 Y95.938 E0.04804
G1 X150.804 Y97.388 E0.04835
G1 X151.252 Y98.865 E0.04838
G1 X151.621 Y100.362 E0.04837
G1 X151.907 Y101.869 E0.04807
G1 X152.127 Y103.512 E0.05200
G1 X152.247 Y105.051 E0.04840
G1 X152.285 Y106.593 E0.04836
G1 X152.242 Y108.115 E0.04772
G1 X152.118 Y109.641 E0.04803
G1 X151.914 Y111.159 E0.04803
G1 X151.630 Y112.665 E0.04804
G1 X151.266 Y114.153 E0.04803
G1 X150.827 Y115.611 E0.04772
G1 X150.313 Y117.043 E0.04773
G1 X149.720 Y118.456 E0.04803
G1 X149.048 Y119.844 E0.04836
G1 X148.304 Y121.195 E0.04837
G1 X147.488 Y122.505 E0.04838
G1 X146.604 Y123.769 E0.04837
G1 X145.653 Y124.984 E0.04837
G1 X144.639 Y126.148 E0.04839
G1 X143.490 Y127.328 E0.05165
G1 X142.363 Y128.367 E0.04807
G1 X141.182 Y129.343 E0.04803
G1 X139.960 Y130.250 E0.04773
G1 X138.683 Y131.097 E0.04804
G1 X137.363 Y131.875 E0.04804
G1 X136.004 Y132.583 E0.04804
G1 X134.619 Y133.214 E0.04772
G1 X133.193 Y133.774 E0.04806
G1 X131.629 Y134.292 E0.05166
G1 X130.139 Y134.696 E0.04838
G1 X128.631 Y135.019 E0.04837
G1 X127.128 Y135.260 E0.04772
G1 X125.604 Y135.421 E0.04804
G1 X124.084 Y135.502 E0.04773
G1 X122.552 Y135.503 E0.04804
G1 X121.021 Y135.422 E0.04805
G1 X119.488 Y135.259 E0.04836
G1 X117.975 Y135.017 E0.04804
G1 X116.467 Y134.693 E0.04836
G1 X114.978 Y134.290 E0.04836
G1 X113.523 Y133.810 E0.04804
G1 X112.085 Y133.251 E0.04836
G1 X110.688 Y132.620 E0.04806
G1 X109.318 Y131.912 E0.04837
G1 X107.987 Y131.131 E0.04837
G1 X106.700 Y130.281 E0.04838
G1 X105.460 Y129.364 E0.04836
G1 X104.270 Y128.381 E0.04838
G1 X103.134 Y127.337 E0.04837
G1 X102.034 Y126.211 E0.04935
G1 X101.023 Y125.058 E0.04806
G1 X100.070 Y123.846 E0.04836
G1 X99.187 Y122.594 E0.04804
G1 X98.371 Y121.296 E0.04808
G1 X97.567 Y119.845 E0.05201
G1 X96.895 Y118.455 E0.04839
G1 X96.298 Y117.033 E0.04837
G1 X95.784 Y115.600 E0.04772
G1 X95.344 Y114.133 E0.04803
G1 X94.981 Y112.644 E0.04804
G1 X94.700 Y111.149 E0.04772
G1 X94.496 Y109.630 E0.04803
G1 X94.372 Y108.103 E0.04804
G1 X94.330 Y106.582 E0.04772
G1 X94.368 Y105.051 E0.04803
G1 X94.488 Y103.513 E0.04836
G1 X94.690 Y101.983 E0.04837
G1 X94.972 Y100.467 E0.04838
G1 X95.335 Y98.967 E0.04837
G1 X95.778 Y97.489 E0.04838
G1 X96.299 Y96.036 E0.04840
G1 X96.943 Y94.508 E0.05199
G1 X97.611 Y93.140 E0.04774
G1 X98.355 Y91.801 E0.04804
G1 X99.169 Y90.503 E0.04803
G1 X100.050 Y89.249 E0.04804
G1 X100.826 Y88.261 E0.03942
G1 X101.122 Y88.493 F10800.000
G1 F1200.000
G1 X102.271 Y87.158 E0.05524
G1 X103.325 Y86.073 E0.04741
G1 X104.434 Y85.045 E0.04741
G1 X105.604 Y84.072 E0.04773
G1 X106.825 Y83.161 E0.04776
G1 X108.182 Y82.261 E0.05102
G1 X109.477 Y81.501 E0.04710
G1 X110.810 Y80.809 E0.04708
G1 X112.168 Y80.192 E0.04677
G1 X113.566 Y79.644 E0.04709
G1 X115.011 Y79.164 E0.04773
G1 X116.479 Y78.761 E0.04773
G1 X117.967 Y78.437 E0.04775
G1 X119.460 Y78.194 E0.04743
G1 X121.067 Y78.022 E0.05067
G1 X122.557 Y77.944 E0.04679
G1 X124.058 Y77.944 E0.04708
G1 X125.568 Y78.023 E0.04741
G1 X127.073 Y78.183 E0.04743
G1 X128.576 Y78.423 E0.04774
G1 X130.055 Y78.741 E0.04742
G1 X131.525 Y79.140 E0.04774
G1 X132.971 Y79.616 E0.04776
G1 X134.467 Y80.201 E0.05034
G1 X135.834 Y80.823 E0.04711
G1 X137.167 Y81.516 E0.04710
G1 X138.461 Y82.278 E0.04709
G1 X139.713 Y83.107 E0.04709
G1 X140.937 Y84.013 E0.04773
G1 X142.110 Y84.983 E0.04775
G1 X143.298 Y86.080 E0.05069
G1 X144.352 Y87.166 E0.04743
G1 X145.346 Y88.305 E0.04740
G1 X146.272 Y89.487 E0.04710
G1 X147.141 Y90.725 E0.04741
G1 X147.944 Y92.006 E0.04741
G1 X148.677 Y93.329 E0.04741
G1 X149.340 Y94.688 E0.04741
G1 X149.929 Y96.081 E0.04742
G1 X150.448 Y97.512 E0.04772
G1 X150.890 Y98.969 E0.04775
G1 X151.253 Y100.448 E0.04774
G1 X151.536 Y101.934 E0.04744
G1 X151.752 Y103.547 E0.05102
G1 X151.871 Y105.066 E0.04776
G1 X151.908 Y106.588 E0.04774
G1 X151.866 Y108.089 E0.04710
G1 X151.744 Y109.596 E0.04740
G1 X151.543 Y111.094 E0.04740
G1 X151.262 Y112.580 E0.04742
G1 X150.904 Y114.049 E0.04741
G1 X150.468 Y115.497 E0.04741
G1 X149.960 Y116.911 E0.04710
G1 X149.374 Y118.305 E0.04740
G1 X148.711 Y119.675 E0.04773
G1 X147.976 Y121.008 E0.04774
G1 X147.170 Y122.301 E0.04775
G1 X146.297 Y123.549 E0.04774
G1 X145.359 Y124.748 E0.04775
G1 X144.358 Y125.896 E0.04776
G1 X143.231 Y127.054 E0.05068
