; generated by PrusaSlicer 2.2.0+win64 on 2020-07-30 at 14:25:07 UTC

; 

; external perimeters extrusion width = 0.45mm
; perimeters extrusion width = 0.45mm
; infill extrusion width = 0.45mm
; solid infill extrusion width = 0.45mm
; top infill extrusion width = 0.40mm
; first layer extrusion width = 0.42mm

M73 P0 R113
M73 Q0 S113
M201 X1000 Y1000 Z200 E5000 ; sets maximum accelerations, mm/sec^2
M203 X200 Y200 Z12 E120 ; sets maximum feedrates, mm/sec
M204 P1250 R1250 T1250 ; sets acceleration (P, T) and retract acceleration (R), mm/sec^2
M205 X8.00 Y8.00 Z0.40 E4.50 ; sets the jerk limits, mm/sec
M205 S0 T0 ; sets the minimum extruding and travel feed rate, mm/sec
M107
M862.3 P "MK3" ; printer model check
M862.1 P0.4 ; nozzle diameter check
M115 U3.9.0 ; tell printer latest fw version
G90 ; use absolute coordinates
M83 ; extruder relative mode
M104 S215 ; set extruder temp
M140 S60 ; set bed temp
M190 S60 ; wait for bed temp
M109 S215 ; wait for extruder temp
G28 W ; home all without mesh bed level
G80 ; mesh bed leveling
G1 Y-3.0 F1000.0 ; go outside print area
G92 E0.0
G1 X60.0 E9.0 F1000.0 ; intro line
M73 Q0 S113
M73 P0 R113
G1 X100.0 E12.5 F1000.0 ; intro line
G92 E0.0
M221 S95
G21 ; set units to millimeters
G90 ; use absolute coordinates
M83 ; use relative distances for extrusion
M900 K0.06 ; Filament gcode LA 1.5
M900 K30 ; Filament gcode LA 1.0
;BEFORE_LAYER_CHANGE
G92 E0.0
;0.2


G1 Z0.200 F10800.000
;AFTER_LAYER_CHANGE
;0.2
G1 E-0.80000 F2100.00000
G1 Z0.800 F10800.000
G1 X103.038 Y88.165
G1 Z0.200
G1 E0.80000 F2100.00000
M204 S1000
G1 F1200.000
G1 X104.864 Y86.145 E0.08538
G1 X106.876 Y84.317 E0.08525
G1 X109.053 Y82.702 E0.08497
G1 X111.360 Y81.324 E0.08426
G1 X113.754 Y80.194 E0.08301
G1 X116.196 Y79.313 E0.08139
G1 X118.673 Y78.672 E0.08022
G1 X121.121 Y78.271 E0.07778
G1 X124.289 Y78.080 E0.09950
G1 X127.449 Y78.262 E0.09925
G1 X129.897 Y78.659 E0.07777
G1 X132.380 Y79.302 E0.08043
G1 X134.819 Y80.185 E0.08130
G1 X137.212 Y81.318 E0.08302
G1 X139.521 Y82.697 E0.08433
G1 X141.699 Y84.306 E0.08491
G1 X143.718 Y86.136 E0.08542
G1 X145.545 Y88.160 E0.08551
G1 X147.149 Y90.335 E0.08474
G1 X148.528 Y92.643 E0.08429
G1 X149.661 Y95.036 E0.08302
G1 X150.543 Y97.471 E0.08121
G1 X151.187 Y99.956 E0.08047
G1 X151.586 Y102.403 E0.07773
G1 X151.772 Y105.564 E0.09930
G1 X151.589 Y108.729 E0.09939
G1 X151.189 Y111.178 E0.07779
G1 X150.546 Y113.660 E0.08039
G1 X149.665 Y116.097 E0.08127
G1 X148.531 Y118.492 E0.08306
G1 X147.151 Y120.798 E0.08428
G1 X145.540 Y122.973 E0.08485
G1 X143.713 Y124.991 E0.08538
G1 X141.696 Y126.821 E0.08538
G1 X139.521 Y128.434 E0.08488
G1 X137.215 Y129.816 E0.08431
G1 X134.821 Y130.949 E0.08306
G1 X132.379 Y131.830 E0.08137
G1 X129.898 Y132.469 E0.08034
G1 X127.451 Y132.866 E0.07773
G1 X124.288 Y133.052 E0.09936
G1 X121.123 Y132.869 E0.09938
G1 X118.677 Y132.473 E0.07769
G1 X116.193 Y131.833 E0.08043
G1 X113.752 Y130.951 E0.08138
G1 X111.355 Y129.813 E0.08320
G1 X109.053 Y128.430 E0.08422
G1 X106.879 Y126.816 E0.08490
G1 X104.864 Y124.989 E0.08528
G1 X103.036 Y122.973 E0.08531
G1 X101.424 Y120.801 E0.08483
G1 X100.040 Y118.494 E0.08433
G1 X98.906 Y116.102 E0.08302
G1 X98.022 Y113.663 E0.08132
G1 X97.377 Y111.181 E0.08042
G1 X96.975 Y108.732 E0.07779
G1 X96.787 Y105.568 E0.09941
G1 X96.973 Y102.401 E0.09946
G1 X97.375 Y99.950 E0.07788
G1 X98.024 Y97.466 E0.08047
G1 X98.910 Y95.034 E0.08117
G1 X100.049 Y92.641 E0.08310
G1 X101.429 Y90.339 E0.08415
G1 X103.002 Y88.213 E0.08291
G1 F8640.000
G1 X104.864 Y86.145 E-0.64253
G1 X105.240 Y85.803 E-0.11747
G1 E-0.04000 F2100.00000
G1 Z0.800 F10800.000
G1 X101.233 Y86.812
G1 Z0.200
G1 E0.80000 F2100.00000
G1 F1200.000
G1 X101.925 Y85.989 E0.03371
G1 X102.558 Y85.289 E0.02959
G1 X103.310 Y84.512 E0.03389
G1 X104.111 Y83.745 E0.03480
G1 X104.735 Y83.181 E0.02635
G1 X105.430 Y82.592 E0.02856
G1 X106.414 Y81.821 E0.03920
G1 X107.827 Y80.817 E0.05436
G1 X108.663 Y80.281 E0.03113
G1 X109.472 Y79.798 E0.02954
G1 X110.299 Y79.339 E0.02966
G1 X111.193 Y78.881 E0.03149
G1 X112.051 Y78.476 E0.02974
G1 X112.930 Y78.096 E0.03003
G1 X113.853 Y77.732 E0.03111
G1 X115.550 Y77.152 E0.05622
G1 X116.506 Y76.875 E0.03121
G1 X118.257 Y76.454 E0.05647
G1 X119.937 Y76.154 E0.05351
G1 X121.621 Y75.952 E0.05317
G1 X123.338 Y75.845 E0.05394
G1 X124.500 Y75.831 E0.03643
G1 X126.080 Y75.884 E0.04959
G1 X127.676 Y76.025 E0.05024
G1 X129.412 Y76.279 E0.05501
G1 X130.360 Y76.461 E0.03025
G1 X132.068 Y76.873 E0.05510
G1 X133.022 Y77.149 E0.03114
G1 X134.592 Y77.684 E0.05201
G1 X135.717 Y78.125 E0.03789
G1 X136.552 Y78.489 E0.02855
G1 X137.381 Y78.881 E0.02875
G1 X138.307 Y79.356 E0.03261
G1 X139.116 Y79.806 E0.02904
G1 X139.909 Y80.280 E0.02897
G1 X140.796 Y80.850 E0.03307
G1 X141.562 Y81.380 E0.02919
G1 X142.317 Y81.937 E0.02944
G1 X143.151 Y82.597 E0.03332
G1 X143.837 Y83.179 E0.02822
G1 X144.461 Y83.743 E0.02637
G1 X145.329 Y84.575 E0.03769
G1 X145.959 Y85.226 E0.02841
G1 X146.524 Y85.848 E0.02635
G1 X147.255 Y86.702 E0.03525
G1 X148.327 Y88.094 E0.05509
G1 X149.041 Y89.117 E0.03913
G1 X149.571 Y89.944 E0.03079
G1 X150.057 Y90.758 E0.02972
G1 X150.518 Y91.590 E0.02983
G1 X150.970 Y92.472 E0.03107
G1 X151.375 Y93.330 E0.02973
G1 X151.755 Y94.208 E0.03001
G1 X152.120 Y95.132 E0.03114
G1 X152.701 Y96.828 E0.05623
G1 X152.978 Y97.783 E0.03118
G1 X153.390 Y99.492 E0.05511
G1 X153.572 Y100.439 E0.03022
G1 X153.826 Y102.177 E0.05508
G1 X153.976 Y103.908 E0.05450
G1 X154.022 Y105.638 E0.05424
G1 X153.972 Y107.295 E0.05199
G1 X153.827 Y108.957 E0.05231
G1 X153.573 Y110.694 E0.05503
G1 X153.390 Y111.640 E0.03023
G1 X152.978 Y113.349 E0.05511
G1 X152.701 Y114.304 E0.03117
G1 X152.121 Y116.000 E0.05623
G1 X151.737 Y116.971 E0.03272
G1 X151.368 Y117.820 E0.02902
G1 X150.971 Y118.661 E0.02916
G1 X150.495 Y119.587 E0.03266
G1 X150.045 Y120.397 E0.02905
G1 X149.571 Y121.190 E0.02897
G1 X149.000 Y122.077 E0.03305
G1 X148.471 Y122.843 E0.02920
G1 X147.912 Y123.598 E0.02945
G1 X147.257 Y124.426 E0.03310
G1 X146.647 Y125.145 E0.02957
G1 X146.014 Y125.844 E0.02958
G1 X145.308 Y126.575 E0.03186
G1 X144.417 Y127.428 E0.03869
G1 X143.086 Y128.587 E0.05533
G1 X142.157 Y129.313 E0.03694
G1 X140.733 Y130.324 E0.05479
G1 X139.741 Y130.954 E0.03682
G1 X138.253 Y131.805 E0.05375
G1 X137.380 Y132.252 E0.03076
G1 X136.522 Y132.657 E0.02974
G1 X135.643 Y133.038 E0.03003
G1 X134.720 Y133.402 E0.03113
G1 X133.022 Y133.983 E0.05625
G1 X132.067 Y134.259 E0.03118
G1 X130.359 Y134.671 E0.05510
G1 X129.412 Y134.853 E0.03023
G1 X127.673 Y135.107 E0.05509
G1 X125.941 Y135.256 E0.05450
G1 X124.213 Y135.303 E0.05423
G1 X122.559 Y135.252 E0.05187
G1 X120.897 Y135.107 E0.05231
G1 X119.160 Y134.853 E0.05503
G1 X118.213 Y134.672 E0.03024
G1 X116.504 Y134.260 E0.05511
G1 X115.549 Y133.983 E0.03119
G1 X113.851 Y133.402 E0.05627
G1 X112.914 Y133.032 E0.03160
G1 X111.366 Y132.335 E0.05321
G1 X110.331 Y131.812 E0.03636
G1 X108.830 Y130.953 E0.05422
G1 X107.838 Y130.323 E0.03686
G1 X106.413 Y129.311 E0.05479
G1 X105.428 Y128.538 E0.03926
G1 X104.672 Y127.895 E0.03112
G1 X103.950 Y127.240 E0.03057
G1 X103.245 Y126.556 E0.03081
G1 X102.558 Y125.844 E0.03100
G1 X101.922 Y125.140 E0.02977
G1 X101.316 Y124.425 E0.02937
G1 X100.660 Y123.599 E0.03307
G1 X100.106 Y122.849 E0.02926
G1 X99.572 Y122.078 E0.02939
G1 X99.001 Y121.191 E0.03306
G1 X98.530 Y120.403 E0.02879
G1 X98.077 Y119.588 E0.02924
G1 X97.600 Y118.661 E0.03270
G1 X97.193 Y117.797 E0.02994
G1 X96.815 Y116.924 E0.02982
G1 X96.451 Y116.001 E0.03113
G1 X95.870 Y114.305 E0.05622
G1 X95.593 Y113.350 E0.03117
G1 X95.180 Y111.642 E0.05510
G1 X94.998 Y110.695 E0.03023
G1 X94.743 Y108.956 E0.05509
G1 X94.594 Y107.230 E0.05433
G1 X94.547 Y105.494 E0.05444
G1 X94.597 Y103.836 E0.05201
G1 X94.743 Y102.174 E0.05232
G1 X94.998 Y100.437 E0.05504
G1 X95.180 Y99.490 E0.03024
G1 X95.593 Y97.781 E0.05513
G1 X95.868 Y96.832 E0.03099
G1 X96.452 Y95.130 E0.05642
G1 X96.836 Y94.159 E0.03273
G1 X97.208 Y93.306 E0.02919
G1 X97.603 Y92.471 E0.02896
G1 X98.079 Y91.544 E0.03266
G1 X98.526 Y90.740 E0.02883
G1 X99.003 Y89.942 E0.02914
G1 X99.573 Y89.056 E0.03304
G1 X100.102 Y88.291 E0.02919
G1 X100.661 Y87.535 E0.02945
G1 X101.196 Y86.859 E0.02705
G1 X101.492 Y87.093 F10800.000
G1 F1200.000
G1 X102.211 Y86.235 E0.03510
G1 X102.836 Y85.544 E0.02921
G1 X103.573 Y84.782 E0.03325
G1 X104.366 Y84.023 E0.03443
G1 X104.981 Y83.467 E0.02598
G1 X105.671 Y82.882 E0.02836
G1 X106.636 Y82.126 E0.03844
G1 X108.034 Y81.132 E0.05380
G1 X108.859 Y80.603 E0.03071
G1 X109.657 Y80.126 E0.02917
G1 X110.474 Y79.673 E0.02928
G1 X111.357 Y79.221 E0.03111
G1 X112.204 Y78.821 E0.02936
G1 X113.071 Y78.445 E0.02964
G1 X113.979 Y78.087 E0.03060
G1 X115.659 Y77.512 E0.05566
G1 X116.598 Y77.241 E0.03066
G1 X118.329 Y76.824 E0.05581
G1 X119.987 Y76.528 E0.05283
G1 X121.660 Y76.327 E0.05283
G1 X123.356 Y76.222 E0.05328
G1 X124.491 Y76.208 E0.03559
G1 X126.052 Y76.260 E0.04897
G1 X127.638 Y76.400 E0.04990
G1 X129.354 Y76.651 E0.05437
G1 X130.284 Y76.830 E0.02971
G1 X131.976 Y77.238 E0.05456
G1 X132.913 Y77.510 E0.03060
G1 X134.467 Y78.040 E0.05147
G1 X135.570 Y78.473 E0.03716
G1 X136.399 Y78.834 E0.02835
G1 X137.217 Y79.221 E0.02838
G1 X138.126 Y79.687 E0.03203
G1 X138.925 Y80.131 E0.02867
G1 X139.713 Y80.602 E0.02878
G1 X140.585 Y81.162 E0.03248
G1 X141.345 Y81.688 E0.02900
G1 X142.091 Y82.239 E0.02906
G1 X142.909 Y82.887 E0.03273
G1 X143.591 Y83.465 E0.02803
G1 X144.207 Y84.020 E0.02600
G1 X145.060 Y84.840 E0.03709
G1 X145.685 Y85.486 E0.02820
G1 X146.243 Y86.100 E0.02598
G1 X146.965 Y86.944 E0.03483
G1 X148.026 Y88.320 E0.05450
G1 X148.726 Y89.324 E0.03836
G1 X149.249 Y90.140 E0.03039
G1 X149.729 Y90.944 E0.02934
G1 X150.184 Y91.765 E0.02945
G1 X150.630 Y92.636 E0.03069
G1 X151.030 Y93.483 E0.02935
G1 X151.406 Y94.349 E0.02962
G1 X151.765 Y95.258 E0.03063
G1 X152.340 Y96.938 E0.05567
G1 X152.612 Y97.876 E0.03064
G1 X153.021 Y99.568 E0.05457
G1 X153.199 Y100.498 E0.02969
G1 X153.451 Y102.215 E0.05442
G1 X153.599 Y103.924 E0.05380
G1 X153.645 Y105.632 E0.05355
G1 X153.595 Y107.278 E0.05165
G1 X153.451 Y108.919 E0.05163
G1 X153.200 Y110.635 E0.05438
G1 X153.021 Y111.565 E0.02970
G1 X152.612 Y113.256 E0.05456
G1 X152.341 Y114.194 E0.03062
G1 X151.765 Y115.874 E0.05567
G1 X151.390 Y116.823 E0.03201
G1 X151.026 Y117.661 E0.02865
G1 X150.631 Y118.497 E0.02897
G1 X150.164 Y119.407 E0.03208
G1 X149.716 Y120.211 E0.02886
G1 X149.249 Y120.994 E0.02860
G1 X148.688 Y121.865 E0.03246
G1 X148.166 Y122.621 E0.02882
G1 X147.611 Y123.372 E0.02926
G1 X146.967 Y124.184 E0.03250
G1 X146.361 Y124.899 E0.02937
G1 X145.737 Y125.589 E0.02920
G1 X145.045 Y126.305 E0.03122
G1 X144.166 Y127.147 E0.03815
G1 X142.850 Y128.293 E0.05472
G1 X141.936 Y129.008 E0.03638
G1 X140.527 Y130.009 E0.05419
G1 X139.550 Y130.628 E0.03627
G1 X138.078 Y131.472 E0.05320
G1 X137.216 Y131.913 E0.03034
G1 X136.369 Y132.312 E0.02936
G1 X135.502 Y132.688 E0.02964
G1 X134.593 Y133.047 E0.03062
G1 X132.913 Y133.622 E0.05568
G1 X131.975 Y133.894 E0.03064
G1 X130.283 Y134.301 E0.05455
G1 X129.353 Y134.480 E0.02970
G1 X127.635 Y134.731 E0.05443
G1 X125.926 Y134.879 E0.05380
G1 X124.219 Y134.926 E0.05354
G1 X122.576 Y134.875 E0.05153
G1 X120.935 Y134.732 E0.05164
G1 X119.219 Y134.481 E0.05438
G1 X118.289 Y134.302 E0.02971
G1 X116.597 Y133.894 E0.05456
G1 X115.658 Y133.622 E0.03065
G1 X113.977 Y133.047 E0.05570
G1 X113.056 Y132.683 E0.03105
G1 X111.525 Y131.993 E0.05266
G1 X110.506 Y131.478 E0.03581
G1 X109.022 Y130.628 E0.05363
G1 X108.044 Y130.007 E0.03630
G1 X106.636 Y129.006 E0.05419
G1 X105.670 Y128.248 E0.03849
G1 X104.923 Y127.614 E0.03071
G1 X104.211 Y126.967 E0.03019
G1 X103.514 Y126.291 E0.03042
G1 X102.836 Y125.589 E0.03062
G1 X102.207 Y124.894 E0.02939
G1 X101.605 Y124.184 E0.02918
G1 X100.962 Y123.372 E0.03248
G1 X100.410 Y122.627 E0.02906
G1 X99.884 Y121.866 E0.02901
G1 X99.324 Y120.995 E0.03247
G1 X98.856 Y120.212 E0.02860
G1 X98.408 Y119.408 E0.02886
G1 X97.940 Y118.497 E0.03211
G1 X97.538 Y117.644 E0.02956
G1 X97.165 Y116.783 E0.02943
G1 X96.806 Y115.875 E0.03062
G1 X96.231 Y114.195 E0.05566
G1 X95.959 Y113.257 E0.03063
G1 X95.550 Y111.566 E0.05456
G1 X95.371 Y110.636 E0.02970
G1 X95.119 Y108.918 E0.05444
G1 X94.971 Y107.214 E0.05363
G1 X94.924 Y105.500 E0.05375
G1 X94.974 Y103.853 E0.05167
G1 X95.118 Y102.213 E0.05164
G1 X95.370 Y100.496 E0.05439
G1 X95.549 Y99.566 E0.02971
G1 X95.959 Y97.874 E0.05458
G1 X96.229 Y96.941 E0.03044
G1 X96.807 Y95.256 E0.05586
G1 X97.183 Y94.307 E0.03202
G1 X97.553 Y93.459 E0.02900
G1 X97.942 Y92.635 E0.02859
G1 X98.410 Y91.725 E0.03208
G1 X98.854 Y90.926 E0.02865
G1 X99.325 Y90.139 E0.02877
G1 X99.885 Y89.268 E0.03245
G1 X100.411 Y88.508 E0.02900
G1 X100.962 Y87.762 E0.02907
G1 X101.454 Y87.140 E0.02487
G1 X101.750 Y87.374 F10800.000
G1 F1200.000
G1 X102.497 Y86.482 E0.03649
G1 X103.113 Y85.799 E0.02883
G1 X103.837 Y85.052 E0.03261
G1 X104.621 Y84.300 E0.03406
G1 X105.227 Y83.753 E0.02562
G1 X105.912 Y83.172 E0.02815
G1 X106.858 Y82.431 E0.03769
G1 X108.242 Y81.447 E0.05324
G1 X109.055 Y80.925 E0.03028
G1 X109.843 Y80.454 E0.02879
G1 X110.654 Y80.005 E0.02909
G1 X111.521 Y79.560 E0.03053
G1 X112.357 Y79.166 E0.02898
G1 X113.213 Y78.795 E0.02925
G1 X114.106 Y78.443 E0.03010
G1 X115.768 Y77.873 E0.05510
G1 X116.691 Y77.606 E0.03011
G1 X118.401 Y77.195 E0.05515
G1 X120.038 Y76.901 E0.05214
G1 X121.700 Y76.702 E0.05248
G1 X123.375 Y76.598 E0.05262
G1 X124.483 Y76.585 E0.03475
G1 X126.024 Y76.636 E0.04835
G1 X127.599 Y76.775 E0.04957
G1 X129.295 Y77.024 E0.05373
G1 X130.208 Y77.200 E0.02918
G1 X131.883 Y77.604 E0.05401
G1 X132.804 Y77.871 E0.03006
G1 X134.341 Y78.395 E0.05092
G1 X135.423 Y78.820 E0.03643
G1 X136.240 Y79.176 E0.02797
G1 X137.053 Y79.560 E0.02819
G1 X137.946 Y80.018 E0.03145
G1 X138.740 Y80.460 E0.02848
G1 X139.517 Y80.924 E0.02840
G1 X140.373 Y81.474 E0.03189
G1 X141.124 Y81.993 E0.02862
G1 X141.864 Y82.540 E0.02887
G1 X142.668 Y83.176 E0.03214
G1 X143.345 Y83.750 E0.02784
G1 X143.952 Y84.298 E0.02563
G1 X144.791 Y85.104 E0.03650
G1 X145.412 Y85.746 E0.02800
G1 X145.962 Y86.351 E0.02562
G1 X146.675 Y87.185 E0.03442
G1 X147.725 Y88.547 E0.05390
G1 X148.411 Y89.531 E0.03760
G1 X148.927 Y90.336 E0.02999
G1 X149.400 Y91.129 E0.02897
G1 X149.850 Y91.940 E0.02907
G1 X150.291 Y92.800 E0.03030
G1 X150.685 Y93.635 E0.02897
G1 X151.056 Y94.491 E0.02923
G1 X151.409 Y95.384 E0.03012
G1 X151.979 Y97.047 E0.05511
G1 X152.247 Y97.969 E0.03009
G1 X152.651 Y99.643 E0.05402
G1 X152.827 Y100.556 E0.02916
G1 X153.076 Y102.253 E0.05376
G1 X153.222 Y103.940 E0.05310
G1 X153.268 Y105.626 E0.05287
G1 X153.219 Y107.251 E0.05098
G1 X153.076 Y108.880 E0.05129
G1 X152.828 Y110.576 E0.05374
G1 X152.652 Y111.489 E0.02916
G1 X152.247 Y113.164 E0.05401
G1 X151.980 Y114.085 E0.03008
G1 X151.410 Y115.748 E0.05511
G1 X151.043 Y116.676 E0.03130
G1 X150.683 Y117.503 E0.02827
G1 X150.291 Y118.333 E0.02878
G1 X149.833 Y119.226 E0.03149
G1 X149.388 Y120.026 E0.02867
G1 X148.926 Y120.798 E0.02822
G1 X148.376 Y121.653 E0.03188
G1 X147.857 Y122.404 E0.02863
G1 X147.310 Y123.145 E0.02888
G1 X146.678 Y123.943 E0.03191
G1 X146.080 Y124.648 E0.02899
G1 X145.459 Y125.334 E0.02901
G1 X144.781 Y126.036 E0.03058
G1 X143.915 Y126.865 E0.03762
G1 X142.613 Y127.999 E0.05412
G1 X141.714 Y128.703 E0.03582
G1 X140.320 Y129.693 E0.05359
G1 X139.359 Y130.303 E0.03571
G1 X137.902 Y131.138 E0.05265
G1 X137.053 Y131.573 E0.02991
G1 X136.217 Y131.968 E0.02898
G1 X135.361 Y132.339 E0.02925
G1 X134.467 Y132.691 E0.03012
G1 X132.804 Y133.261 E0.05512
G1 X131.882 Y133.528 E0.03010
G1 X130.208 Y133.932 E0.05400
G1 X129.294 Y134.108 E0.02917
G1 X127.597 Y134.356 E0.05378
G1 X125.910 Y134.502 E0.05311
G1 X124.225 Y134.549 E0.05284
G1 X122.593 Y134.498 E0.05119
G1 X120.974 Y134.357 E0.05096
G1 X119.278 Y134.108 E0.05373
G1 X118.364 Y133.933 E0.02917
G1 X116.690 Y133.529 E0.05401
G1 X115.767 Y133.261 E0.03010
G1 X114.104 Y132.691 E0.05514
G1 X113.199 Y132.334 E0.03051
G1 X111.684 Y131.651 E0.05210
G1 X110.680 Y131.143 E0.03526
G1 X109.213 Y130.303 E0.05303
G1 X108.251 Y129.691 E0.03573
G1 X106.858 Y128.701 E0.05359
G1 X105.911 Y127.959 E0.03773
G1 X105.174 Y127.333 E0.03031
